!!!!SEGMENT: pl-wtm--r-1687_stefani-jozef--coda-do-galopady.krn
!!!cenid: 18xx:2306
!!!COM: Stefani, Józef
!!!COM-rismID: pe30024097
!!!CDT: 1800/04/16-1876/03/19
!!!CNT: Polish
!!!OTL: Coda do Galopady
!!!PDT:
!!!AGN: Secular; Galop
!!!SMS-siglum: PL-Wtm
!!!SMS-shelfmark: R 1687
!!!SMS-shelfwork: W
!!!SMS-variant:
!!!SMS-altvar:
!!!NIFC-rismSourceID: 1001114706
!!!NIFC-rismChildID: 1001114706
!!!NIFC-islandoraID: pl-wtm:28017
!!!URL-pdf-islandora: https://repozytorium.nifc.pl/islandora/object/pl-wtm%3A28017/datastream/PDF/view
!!!URL-scan: https://polish.musicsources.pl/pl/lokalizacje/galeria/rekopisy/6427 @EN{Scan on Polish Music Sources Website} @PL{Skany w portalu Dziedzictwo Muzyki Polskiej w otwartym dostępie}
!!!IIIF:
!!!ONB-nifc:
!!!AIN: 1 clars 2 cor 1 drumP 5 empty 1 fagot 1 oboe 2 timpa 1 trngl 1 tromp 1 tromt 1 viola
!!!key:
**kern	**kern	**dynam	**kern	**dynam	**kern	**dynam	**kern	**dynam	**kern	**dynam	**kern	**dynam	**kern	**dynam	**kern	**kern	**dynam	**kern	**dynam	**kern	**dynam	**kern	**dynam	**kern	**dynam	**kern	**dynam	**kern	**dynam	**kern	**dynam
*	*	*	*	*	*	*	*	*	*	*	*group2	*	*group2	*	*	*	*	*	*	*	*	*	*	*	*	*	*	*group1	*	*group1	*
*	*	*	*	*	*	*	*	*	*	*	*I""Violini	*	*I""Violini	*	*	*	*	*	*	*	*	*	*	*	*	*	*	*I""Picolini	*	*I""Picolini	*
*part17	*part16	*part16	*part15	*part15	*part14	*part14	*part13	*part13	*part12	*part12	*part11	*part11	*part10	*part10	*part9	*part8	*part8	*part7	*part7	*part6	*part6	*part5	*part5	*part4	*part4	*part3	*part3	*part2	*part2	*part1	*part1
*staff17	*staff16	*	*staff15	*	*staff14	*	*staff13	*	*staff12	*	*staff11	*	*staff10	*	*staff9	*staff8	*	*staff7	*	*staff6	*	*staff5	*	*staff4	*	*staff3	*	*staff2	*	*staff1	*
*Itimpa	*IdrumP	*	*Itrngl	*	*Itimpa	*	*Iempty	*	*Iviola	*	*Iempty	*	*Iempty	*	*Itromp	*Itromt	*	*Ifagot	*	*Icor	*	*Icor	*	*Iclars	*	*Ioboe	*	*Iempty	*	*Iempty	*
*I"Totombas	*I"P:V Tambour	*	*I"Triangolo	*	*I"Tympani E. h.	*	*I"Basſi	*	*I"Viole	*	*	*	*	*	*I"in d. Trombe	*I"Trombone	*	*I"Fagotti	*	*I"Corni in E.	*	*I"Corni in d.	*	*I"in C Clarinetti	*	*I"Oboe	*	*	*	*	*
*	*	*	*	*	*stria1	*	*	*	*	*	*	*	*	*	*	*	*	*	*	*	*	*	*	*	*	*	*	*	*	*	*
*clefF4	*clefF4	*	*clefG2	*	*clefF4	*	*clefF4	*	*clefC3	*	*clefG2	*	*clefG2	*	*clefG2	*clefF4	*	*clefF4	*	*clefG2	*	*clefG2	*	*clefG2	*	*clefG2	*	*clefG2	*	*clefG2	*
*	*	*	*	*	*	*	*	*	*	*	*	*	*	*	*ITrd-1c-2	*	*	*	*	*ITrd5c8	*	*ITrd6c10	*	*	*	*	*	*	*	*	*
*k[]	*k[]	*	*k[]	*	*k[]	*	*k[f#c#g#d#a#]	*	*k[f#c#g#d#a#]	*	*k[f#c#g#d#a#]	*	*k[f#c#g#d#a#]	*	*k[f#c#]	*k[f#c#g#d#a#]	*	*k[f#c#g#d#a#]	*	*k[f#c#g#d#]	*	*k[f#c#]	*	*k[f#c#g#d#a#]	*	*k[f#c#g#d#a#]	*	*k[f#c#g#d#a#]	*	*k[f#c#g#d#a#]	*
*B:	*B:	*	*B:	*	*B:	*	*B:	*	*B:	*	*B:	*	*B:	*	*B:	*B:	*	*B:	*	*B:	*	*B:	*	*B:	*	*B:	*	*B:	*	*B:	*
*M2/4	*M2/4	*	*M2/4	*	*M2/4	*	*M2/4	*	*M2/4	*	*M2/4	*	*M2/4	*	*M2/4	*M2/4	*	*M2/4	*	*M2/4	*	*M2/4	*	*M2/4	*	*M2/4	*	*M2/4	*	*M2/4	*
=1	=1	=1	=1	=1	=1	=1	=1	=1	=1	=1	=1	=1	=1	=1	=1	=1	=1	=1	=1	=1	=1	=1	=1	=1	=1	=1	=1	=1	=1	=1	=1
*	*	*	*	*	*	*	*^	*	*	*	*	*	*	*	*	*	*	*	*	*	*	*	*	*	*	*	*	*	*	*	*
*	*	*	*	*	*2\right	*	*	*tremolo	*	*tremolo	*	*	*	*	*	*	*	*	*2\right	*	*	*	*	*	*	*	*	*	*	*	*	*
!	!LO:	!	!LO:TX:a:t=P:problem=w trzech dolnych głosach linebreaki w innych miejscach, bo głosy zapisane są osobno na końcu zbioru	!	!LO:TX:a:t=P::problem=po kluczu małe nutki&colon; cauda w górę to e, cauda w dół to h	!	!	!	!	!	!	!	!	!	!	!	!	!	!	!	!	!	!	!	!	!	!	!	!	!	!	!
!	!	!	!LO:TX:a:t=2.	!	!LO:SIC:s=2BBT\	!LO:DY:rj	!LO:TX:a:t=V&colon;C	!	!LO:DY:rj	!	!LO:DY:rj	!	!	!	!	!	!	!	!	!LO:DY:rj	!	!LO:DY:a:rj	!	!	!	!	!	!	!	!	!	!
2r	2r	.	2r	.	2Rett\	fp	2rAAA	16BB/LL	fp	16B/LL	fp	2r	.	2r	.	2r	2r	.	2B 2BB\	fp	[2B [2BB/	fp	2r	.	2r	.	2r	.	2r	.	2r	.
.	.	.	.	.	.	.	.	16BB/	.	16B/	.	.	.	.	.	.	.	.	.	.	.	.	.	.	.	.	.	.	.	.	.	.
.	.	.	.	.	.	.	.	16BB/	.	16B/	.	.	.	.	.	.	.	.	.	.	.	.	.	.	.	.	.	.	.	.	.	.
.	.	.	.	.	.	.	.	16BB/	.	16B/	.	.	.	.	.	.	.	.	.	.	.	.	.	.	.	.	.	.	.	.	.	.
.	.	.	.	.	.	.	.	16BB/	.	16B/	.	.	.	.	.	.	.	.	.	.	.	.	.	.	.	.	.	.	.	.	.	.
.	.	.	.	.	.	.	.	16BB/	.	16B/	.	.	.	.	.	.	.	.	.	.	.	.	.	.	.	.	.	.	.	.	.	.
.	.	.	.	.	.	.	.	16BB/	.	16B/	.	.	.	.	.	.	.	.	.	.	.	.	.	.	.	.	.	.	.	.	.	.
.	.	.	.	.	.	.	.	16BB/JJ	.	16B/JJ	.	.	.	.	.	.	.	.	.	.	.	.	.	.	.	.	.	.	.	.	.	.
=2	=2	=2	=2	=2	=2	=2	=2	=2	=2	=2	=2	=2	=2	=2	=2	=2	=2	=2	=2	=2	=2	=2	=2	=2	=2	=2	=2	=2	=2	=2	=2	=2
!	!	!	!	!	!LO:SIC:s=2BB\	!	!LO:TX:b:t=pizz	!	!	!	!	!	!	!	!	!	!	!	!	!	!	!	!	!	!	!	!	!	!	!	!	!
2r	2r	.	2r	.	2Rettt\	.	2rAAA	16BB/LL	.	16B/LL	.	2r	.	2r	.	2r	2r	.	2B 2BB\	.	2B] 2BB/]	.	2r	.	2r	.	2r	.	2r	.	2r	.
.	.	.	.	.	.	.	.	16BB/	.	16B/	.	.	.	.	.	.	.	.	.	.	.	.	.	.	.	.	.	.	.	.	.	.
.	.	.	.	.	.	.	.	16BB/	.	16B/	.	.	.	.	.	.	.	.	.	.	.	.	.	.	.	.	.	.	.	.	.	.
.	.	.	.	.	.	.	.	16BB/	.	16B/	.	.	.	.	.	.	.	.	.	.	.	.	.	.	.	.	.	.	.	.	.	.
.	.	.	.	.	.	.	.	16BB/	.	16B/	.	.	.	.	.	.	.	.	.	.	.	.	.	.	.	.	.	.	.	.	.	.
.	.	.	.	.	.	.	.	16BB/	.	16B/	.	.	.	.	.	.	.	.	.	.	.	.	.	.	.	.	.	.	.	.	.	.
.	.	.	.	.	.	.	.	16BB/	.	16B/	.	.	.	.	.	.	.	.	.	.	.	.	.	.	.	.	.	.	.	.	.	.
.	.	.	.	.	.	.	.	16BB/JJ	.	16B/JJ	.	.	.	.	.	.	.	.	.	.	.	.	.	.	.	.	.	.	.	.	.	.
=3	=3	=3	=3	=3	=3	=3	=3	=3	=3	=3	=3	=3	=3	=3	=3	=3	=3	=3	=3	=3	=3	=3	=3	=3	=3	=3	=3	=3	=3	=3	=3	=3
*	*	*	*	*	*rep	*	*	*	*	*	*	*	*	*	*	*	*	*	*	*	*	*	*	*	*	*	*	*	*	*	*	*
.	.	.	.	.	.	.	.	.	.	.	.	.	.	(8qc#/	.	.	.	.	.	.	.	.	.	.	(8qc#/	.	.	.	.	.	.	.
*	*	*	*	*	*	*	*	*	*	*	*	*tremolo	*	*	*	*	*	*	*	*	*2\right	*	*	*	*	*	*	*	*	*	*	*
!	!	!	!	!LO:DY:rj	!LO:SIC:s=2BB\	!	!	!	!	!	!	!	!LO:DY:rj	!	!	!	!	!	!	!	!LO:TX:a:t=P:problem=w tt. 3-8 skreślone górne dźwięki	!	!	!	!	!	!	!	!	!	!	!
2r	2r	.	8Ree\	p	2Rettt\	.	4BB\	16BB/LL	.	8F#/L	.	8A#X/L	p	8B/L)	.	2r	2r	.	[2An [>2F#\	.	[<2BB\	.	2r	.	8B/L)	.	2r	.	2r	.	2r	.
.	.	.	.	.	.	.	.	16BB/	.	.	.	.	.	.	.	.	.	.	.	.	.	.	.	.	.	.	.	.	.	.	.	.
.	.	.	8r	.	.	.	.	16BB/	.	8F#/	.	8A#/	.	8A#'>/	.	.	.	.	.	.	.	.	.	.	8A#'/	.	.	.	.	.	.	.
.	.	.	.	.	.	.	.	16BB/	.	.	.	.	.	.	.	.	.	.	.	.	.	.	.	.	.	.	.	.	.	.	.	.
.	.	.	8Ree\	.	.	.	4rCC	16BB/	.	8F#/	.	8A#/	.	8B'>/	.	.	.	.	.	.	.	.	.	.	8B'/	.	.	.	.	.	.	.
.	.	.	.	.	.	.	.	16BB/	.	.	.	.	.	.	.	.	.	.	.	.	.	.	.	.	.	.	.	.	.	.	.	.
.	.	.	8r	.	.	.	.	16BB/	.	8F#/J	.	8A#/J	.	8A#'>/J	.	.	.	.	.	.	.	.	.	.	8A#'/J	.	.	.	.	.	.	.
.	.	.	.	.	.	.	.	16BB/JJ	.	.	.	.	.	.	.	.	.	.	.	.	.	.	.	.	.	.	.	.	.	.	.	.
*	*	*	*	*	*Xrep	*	*	*	*	*	*	*	*	*	*	*	*	*	*	*	*	*	*	*	*	*	*	*	*	*	*	*
=4	=4	=4	=4	=4	=4	=4	=4	=4	=4	=4	=4	=4	=4	=4	=4	=4	=4	=4	=4	=4	=4	=4	=4	=4	=4	=4	=4	=4	=4	=4	=4	=4
*	*	*	*	*	*rep	*	*rep	*rep	*	*rep	*	*rep	*	*	*	*	*	*	*	*	*	*	*	*	*	*	*	*	*	*	*	*
!	!	!	!	!	!LO:SIC:s=2BB\	!	!	!	!	!	!	!	!	!	!	!	!	!	!	!	!	!	!	!	!	!	!	!	!	!	!	!
2r	2r	.	4Ree\	.	2Rettt\	.	4BB\	16BB/LL	.	8F#/L	.	8A#X/L	.	8B/L	.	2r	2r	.	2An] 2F#\]	.	2BB\_<	.	2r	.	8B'/L	.	2r	.	2r	.	2r	.
.	.	.	.	.	.	.	.	16BB/	.	.	.	.	.	.	.	.	.	.	.	.	.	.	.	.	.	.	.	.	.	.	.	.
.	.	.	.	.	.	.	.	16BB/	.	8F#/	.	8A#/	.	16d#/L	.	.	.	.	.	.	.	.	.	.	(16d#/L	.	.	.	.	.	.	.
.	.	.	.	.	.	.	.	16BB/	.	.	.	.	.	16e/JJ	.	.	.	.	.	.	.	.	.	.	16e/JJ	.	.	.	.	.	.	.
.	.	.	4r	.	.	.	4rCC	16BB/	.	8F#/	.	8A#/	.	4f#/	.	.	.	.	.	.	.	.	.	.	4f#/)	.	.	.	.	.	.	.
.	.	.	.	.	.	.	.	16BB/	.	.	.	.	.	.	.	.	.	.	.	.	.	.	.	.	.	.	.	.	.	.	.	.
.	.	.	.	.	.	.	.	16BB/	.	8F#/J	.	8A#/J	.	.	.	.	.	.	.	.	.	.	.	.	.	.	.	.	.	.	.	.
.	.	.	.	.	.	.	.	16BB/JJ	.	.	.	.	.	.	.	.	.	.	.	.	.	.	.	.	.	.	.	.	.	.	.	.
*	*	*	*	*	*Xrep	*	*Xrep	*Xrep	*	*Xrep	*	*Xrep	*	*	*	*	*	*	*	*	*	*	*	*	*	*	*	*	*	*	*	*
=5	=5	=5	=5	=5	=5	=5	=5	=5	=5	=5	=5	=5	=5	=5	=5	=5	=5	=5	=5	=5	=5	=5	=5	=5	=5	=5	=5	=5	=5	=5	=5	=5
*	*	*	*	*	*rep	*	*rep	*rep	*	*	*	*	*	*	*	*	*	*	*	*	*	*	*	*	*	*	*	*	*	*	*	*
.	.	.	.	.	.	.	.	.	.	.	.	.	.	(8qc#/	.	.	.	.	.	.	.	.	.	.	(8qc#/	.	.	.	.	.	.	.
!	!	!	!	!	!LO:SIC:s=2BB\	!	!	!	!	!	!	!	!	!	!	!	!	!	!	!	!	!	!	!	!	!	!	!	!	!	!	!
2r	2r	.	8Ree\	.	2Rettt\	.	4BB\	16BB/LL	.	8E/L	.	8G#/L	.	8B/L)	.	2r	2r	.	2G# 2E\	.	2BB\_<	.	2r	.	8B/L)	.	2r	.	2r	.	2r	.
.	.	.	.	.	.	.	.	16BB/	.	.	.	.	.	.	.	.	.	.	.	.	.	.	.	.	.	.	.	.	.	.	.	.
.	.	.	8r	.	.	.	.	16BB/	.	8E/	.	8G#/	.	8A#'/	.	.	.	.	.	.	.	.	.	.	8A#'/	.	.	.	.	.	.	.
.	.	.	.	.	.	.	.	16BB/	.	.	.	.	.	.	.	.	.	.	.	.	.	.	.	.	.	.	.	.	.	.	.	.
.	.	.	8Ree\	.	.	.	4rCC	16BB/	.	8E/	.	8G#/	.	8B'/	.	.	.	.	.	.	.	.	.	.	8B'/	.	.	.	.	.	.	.
.	.	.	.	.	.	.	.	16BB/	.	.	.	.	.	.	.	.	.	.	.	.	.	.	.	.	.	.	.	.	.	.	.	.
.	.	.	8r	.	.	.	.	16BB/	.	8E/J	.	8G#/J	.	8A#'/J	.	.	.	.	.	.	.	.	.	.	8A#'/J	.	.	.	.	.	.	.
.	.	.	.	.	.	.	.	16BB/JJ	.	.	.	.	.	.	.	.	.	.	.	.	.	.	.	.	.	.	.	.	.	.	.	.
*	*	*	*	*	*Xrep	*	*Xrep	*Xrep	*	*	*	*	*	*	*	*	*	*	*	*	*	*	*	*	*	*	*	*	*	*	*	*
=6	=6	=6	=6	=6	=6	=6	=6	=6	=6	=6	=6	=6	=6	=6	=6	=6	=6	=6	=6	=6	=6	=6	=6	=6	=6	=6	=6	=6	=6	=6	=6	=6
*	*	*	*	*	*rep	*	*rep	*rep	*	*	*	*	*	*	*	*	*	*	*	*	*	*	*	*	*	*	*	*	*	*	*	*
!	!	!	!	!	!LO:SIC:s=2BB\	!	!	!	!	!	!	!	!	!	!	!	!	!	!	!	!	!	!	!	!	!	!	!	!	!	!	!
2r	2r	.	4Ree\	.	2Rettt\	.	4BB\	16BB/LL	.	8E/L	.	8Gn/L	.	8B/L	.	2r	2r	.	2G# 2E\	.	2BB\]	.	2r	.	8B/L	.	2r	.	2r	.	2r	.
.	.	.	.	.	.	.	.	16BB/	.	.	.	.	.	.	.	.	.	.	.	.	.	.	.	.	.	.	.	.	.	.	.	.
.	.	.	.	.	.	.	.	16BB/	.	8E/	.	8G/	.	16e/L	.	.	.	.	.	.	.	.	.	.	16e/L	.	.	.	.	.	.	.
.	.	.	.	.	.	.	.	16BB/	.	.	.	.	.	16f#/JJ	.	.	.	.	.	.	.	.	.	.	16f#/JJ	.	.	.	.	.	.	.
.	.	.	4r	.	.	.	4rCC	16BB/	.	8E/	.	8G/	.	4gn/	.	.	.	.	.	.	.	.	.	.	4gn/	.	.	.	.	.	.	.
.	.	.	.	.	.	.	.	16BB/	.	.	.	.	.	.	.	.	.	.	.	.	.	.	.	.	.	.	.	.	.	.	.	.
.	.	.	.	.	.	.	.	16BB/	.	8E/J	.	8G/J	.	.	.	.	.	.	.	.	.	.	.	.	.	.	.	.	.	.	.	.
.	.	.	.	.	.	.	.	16BB/JJ	.	.	.	.	.	.	.	.	.	.	.	.	.	.	.	.	.	.	.	.	.	.	.	.
*	*	*	*	*	*Xrep	*	*Xrep	*Xrep	*	*	*	*	*	*	*	*	*	*	*	*	*	*	*	*	*	*	*	*	*	*	*	*
=7	=7	=7	=7	=7	=7	=7	=7	=7	=7	=7	=7	=7	=7	=7	=7	=7	=7	=7	=7	=7	=7	=7	=7	=7	=7	=7	=7	=7	=7	=7	=7	=7
*	*	*	*	*	*	*	*	*	*	*	*	*	*	*	*	*	*	*	*^	*	*	*	*	*	*	*	*	*	*	*	*	*
*	*	*	*	*	*rep	*	*	*	*	*	*	*	*	*	*	*	*	*	*	*	*	*	*	*	*	*	*	*	*	*	*	*	*
!	!	!	!	!	!LO:SIC:s=2BB\	!	!	!	!	!	!	!	!	!	!	!	!	!	!	!	!	!	!	!	!	!	!	!	!	!	!	!	!
2r	2r	.	4Ree\	.	2Rettt\	.	4BB\	16BB/LL	.	8F#L 8E/	.	8A#X/L	.	8a#/	.	2r	2r	.	2F#/	2E\	.	2BB\	.	2r	.	[2f# [2c#/	.	2r	.	2r	.	2r	.
.	.	.	.	.	.	.	.	16BB/	.	.	.	.	.	.	.	.	.	.	.	.	.	.	.	.	.	.	.	.	.	.	.	.	.
.	.	.	.	.	.	.	.	16BB/	.	8F# 8E/	.	8A#/	.	4ee^<\	.	.	.	.	.	.	.	.	.	.	.	.	.	.	.	.	.	.	.
.	.	.	.	.	.	.	.	16BB/	.	.	.	.	.	.	.	.	.	.	.	.	.	.	.	.	.	.	.	.	.	.	.	.	.
.	.	.	4r	.	.	.	4rCC	16BB/	.	8F# 8E/	.	8A#/	.	.	.	.	.	.	.	.	.	.	.	.	.	.	.	.	.	.	.	.	.
.	.	.	.	.	.	.	.	16BB/	.	.	.	.	.	.	.	.	.	.	.	.	.	.	.	.	.	.	.	.	.	.	.	.	.
.	.	.	.	.	.	.	.	16BB/	.	8F#J 8E/	.	8A#/J	.	8cc#\	.	.	.	.	.	.	.	.	.	.	.	.	.	.	.	.	.	.	.
.	.	.	.	.	.	.	.	16BB/JJ	.	.	.	.	.	.	.	.	.	.	.	.	.	.	.	.	.	.	.	.	.	.	.	.	.
*	*	*	*	*	*Xrep	*	*	*	*	*	*	*	*	*	*	*	*	*	*	*	*	*	*	*	*	*	*	*	*	*	*	*	*
=8	=8	=8	=8	=8	=8	=8	=8	=8	=8	=8	=8	=8	=8	=8	=8	=8	=8	=8	=8	=8	=8	=8	=8	=8	=8	=8	=8	=8	=8	=8	=8	=8	=8
*	*	*	*	*	*rep	*	*	*	*	*rep	*	*rep	*	*	*	*	*	*	*	*	*	*	*	*	*	*	*	*	*	*	*	*	*
!	!	!	!	!	!LO:SIC:s=2BB\	!	!	!	!	!	!	!	!	!	!	!	!	!	!	!	!	!	!	!	!	!	!	!	!	!	!	!	!
2r	2r	.	4Ree\	.	2Rettt\	.	4BB\	16BB/LL	.	8F#L 8E/	.	8A#X/L	.	8gg#\	.	2r	2r	.	2F#/	2E\	.	2BB\	.	2r	.	2f#] 2c#/]	.	2r	.	2r	.	2r	.
.	.	.	.	.	.	.	.	16BB/	.	.	.	.	.	.	.	.	.	.	.	.	.	.	.	.	.	.	.	.	.	.	.	.	.
.	.	.	.	.	.	.	.	16BB/	.	8F# 8E/	.	8A#/	.	4ff#^<\	.	.	.	.	.	.	.	.	.	.	.	.	.	.	.	.	.	.	.
.	.	.	.	.	.	.	.	16BB/	.	.	.	.	.	.	.	.	.	.	.	.	.	.	.	.	.	.	.	.	.	.	.	.	.
.	.	.	4r	.	.	.	4rCC	16BB/	.	8F# 8E/	.	8A#/	.	.	.	.	.	.	.	.	.	.	.	.	.	.	.	.	.	.	.	.	.
.	.	.	.	.	.	.	.	16BB/	.	.	.	.	.	.	.	.	.	.	.	.	.	.	.	.	.	.	.	.	.	.	.	.	.
.	.	.	.	.	.	.	.	16BB/	.	8F#J 8E/	.	8A#/J	.	8ee\	.	.	.	.	.	.	.	.	.	.	.	.	.	.	.	.	.	.	.
.	.	.	.	.	.	.	.	16BB/JJ	.	.	.	.	.	.	.	.	.	.	.	.	.	.	.	.	.	.	.	.	.	.	.	.	.
*	*	*	*	*	*Xrep	*	*	*	*	*Xrep	*	*Xrep	*	*	*	*	*	*	*	*	*	*	*	*	*	*	*	*	*	*	*	*	*
*	*	*	*	*	*	*	*	*Xtremolo	*	*Xtremolo	*	*Xtremolo	*	*	*	*	*	*	*	*	*	*	*	*	*	*	*	*	*	*	*	*	*
*	*	*	*	*	*	*	*v	*v	*	*	*	*	*	*	*	*	*	*	*v	*v	*	*	*	*	*	*	*	*	*	*	*	*	*
!!LO:PB:g=original
=9	=9	=9	=9	=9	=9	=9	=9	=9	=9	=9	=9	=9	=9	=9	=9	=9	=9	=9	=9	=9	=9	=9	=9	=9	=9	=9	=9	=9	=9	=9	=9
!LO:TX:a:t=2.	!LO:TX:a:t=2.	!	!LO:TX:a:t=2.	!	!LO:SIC:s=8BB\	!	!LO:TX:b:t=l`arco	!	!	!	!	!	!	!	!	!	!	!	!	!	!	!	!	!	!	!	!	!	!	!	!
2r	2r	.	2r	.	8Re\	.	8BB/	.	8F#L 8D#/	.	8B/L	.	16dd#\LL	.	2r	2r	.	8F# 8D#\	.	4BB/	.	8r	.	8r	.	2r	.	2r	.	2r	.
.	.	.	.	.	.	.	.	.	.	.	.	.	16ff#\	.	.	.	.	.	.	.	.	.	.	.	.	.	.	.	.	.	.
.	.	.	.	.	8r	.	8r	.	8F#J 8D#/	.	8B/J	.	16ee\	.	.	.	.	8r	.	.	.	8f# 8d#X\	.	8f# 8d#/	.	.	.	.	.	.	.
.	.	.	.	.	.	.	.	.	.	.	.	.	16dd#\JJ	.	.	.	.	.	.	.	.	.	.	.	.	.	.	.	.	.	.
!	!	!	!	!	!LO:SIC:s=8E/	!	!	!	!	!	!	!	!	!	!	!	!	!	!	!	!	!	!	!	!	!	!	!	!	!	!
.	.	.	.	.	8Re/	.	8E\	.	8r	.	8r	.	16cc#\LL	.	.	.	.	8G# 8E\	.	4r	.	8r	.	8r	.	.	.	.	.	.	.
.	.	.	.	.	.	.	.	.	.	.	.	.	16ee\	.	.	.	.	.	.	.	.	.	.	.	.	.	.	.	.	.	.
.	.	.	.	.	8r	.	8r	.	8G# 8E/	.	8c#/	.	16dd#\	.	.	.	.	8r	.	.	.	8e\	.	8g# 8e/	.	.	.	.	.	.	.
.	.	.	.	.	.	.	.	.	.	.	.	.	16cc#\JJ	.	.	.	.	.	.	.	.	.	.	.	.	.	.	.	.	.	.
=10	=10	=10	=10	=10	=10	=10	=10	=10	=10	=10	=10	=10	=10	=10	=10	=10	=10	=10	=10	=10	=10	=10	=10	=10	=10	=10	=10	=10	=10	=10	=10
!	!	!	!	!	!LO:SIC:s=8BB\	!	!	!	!	!	!	!	!	!	!	!	!	!	!	!	!	!	!	!	!	!	!	!	!	!	!
2r	2r	.	2r	.	8Re\	.	8F#\	.	8r	.	8r	.	16b\LL	.	2r	2r	.	8d# 8F#\	.	2r	.	8r	.	8r	.	2r	.	2r	.	2r	.
.	.	.	.	.	.	.	.	.	.	.	.	.	16dd#\	.	.	.	.	.	.	.	.	.	.	.	.	.	.	.	.	.	.
.	.	.	.	.	8r	.	8r	.	8B 8F#/	.	8d#/	.	16cc#\	.	.	.	.	8r	.	.	.	8f#\	.	8b 8d#/	.	.	.	.	.	.	.
.	.	.	.	.	.	.	.	.	.	.	.	.	16b\JJ	.	.	.	.	.	.	.	.	.	.	.	.	.	.	.	.	.	.
!	!	!	!	!	!LO:SIC:s=8E/	!	!	!	!	!	!	!	!	!	!	!	!	!	!	!	!	!	!	!	!	!	!	!	!	!	!
.	.	.	.	.	8Re/	.	8FF#/	.	8r	.	8r	.	16a#/LL	.	.	.	.	8e 8F#\	.	.	.	8r	.	8r	.	.	.	.	.	.	.
.	.	.	.	.	.	.	.	.	.	.	.	.	16cc#/	.	.	.	.	.	.	.	.	.	.	.	.	.	.	.	.	.	.
.	.	.	.	.	8r	.	8r	.	8c# 8F#/	.	8e 8c#/	.	16b/	.	.	.	.	8r	.	.	.	8f# 8e\	.	8a# 8c#/	.	.	.	.	.	.	.
.	.	.	.	.	.	.	.	.	.	.	.	.	16a#/JJ	.	.	.	.	.	.	.	.	.	.	.	.	.	.	.	.	.	.
=11	=11	=11	=11	=11	=11	=11	=11	=11	=11	=11	=11	=11	=11	=11	=11	=11	=11	=11	=11	=11	=11	=11	=11	=11	=11	=11	=11	=11	=11	=11	=11
*	*	*	*	*	*	*	*^	*	*	*	*	*	*	*	*	*	*	*	*	*	*	*^	*	*	*	*	*	*	*	*	*
.	16qqRa/LL	p	.	.	.	.	.	.	.	.	.	.	.	.	.	.	.	.	.	.	.	.	.	.	.	.	.	.	.	.	.	.	.
.	16qqRa/JJ	.	.	.	.	.	.	.	.	.	.	.	.	(8qcc#/	.	.	.	.	.	.	.	.	.	.	.	.	.	(8qcc#/	.	.	.	.	.
*	*	*	*	*	*	*	*	*tremolo	*	*tremolo	*	*tremolo	*	*	*	*	*	*	*	*	*	*	*	*2\right	*	*	*	*	*	*	*	*	*
!	!	!	!	!LO:DY:rj	!LO:SIC:s=2BBT\	!	!	!	!	!	!	!	!	!	!	!	!	!	!	!	!	!	!	!	!	!	!	!	!	!	!	!	!
2r	4Ra/	.	8Ree\	p	2Rett\	.	4BB\	16BB/LL	.	8B/L	.	8d#/L	.	8b/L)	.	2r	2r	.	2d# 2F#\	.	[2B [2BB/	.	2f#/	2d#X\	.	2r	.	8b/L)	.	2r	.	2r	.
.	.	.	.	.	.	.	.	16BB/	.	.	.	.	.	.	.	.	.	.	.	.	.	.	.	.	.	.	.	.	.	.	.	.	.
.	.	.	8r	.	.	.	.	16BB/	.	8B/	.	8d#/	.	8a#'/	.	.	.	.	.	.	.	.	.	.	.	.	.	8a#'/	.	.	.	.	.
.	.	.	.	.	.	.	.	16BB/	.	.	.	.	.	.	.	.	.	.	.	.	.	.	.	.	.	.	.	.	.	.	.	.	.
.	4r	.	8Ree\	.	.	.	4rCC	16BB/	.	8B/	.	8d#/	.	8b'/	.	.	.	.	.	.	.	.	.	.	.	.	.	8b'/	.	.	.	.	.
.	.	.	.	.	.	.	.	16BB/	.	.	.	.	.	.	.	.	.	.	.	.	.	.	.	.	.	.	.	.	.	.	.	.	.
.	.	.	8r	.	.	.	.	16BB/	.	8B/J	.	8d#/J	.	8a#'/J	.	.	.	.	.	.	.	.	.	.	.	.	.	8a#'/J	.	.	.	.	.
.	.	.	.	.	.	.	.	16BB/JJ	.	.	.	.	.	.	.	.	.	.	.	.	.	.	.	.	.	.	.	.	.	.	.	.	.
!LO:LB:g=original	!LO:LB:g=original	!	!LO:LB:g=original	!	!	!	!	!	!	!	!	!	!	!	!	!	!	!	!	!	!	!	!	!	!	!	!	!	!	!	!	!	!
=12	=12	=12	=12	=12	=12	=12	=12	=12	=12	=12	=12	=12	=12	=12	=12	=12	=12	=12	=12	=12	=12	=12	=12	=12	=12	=12	=12	=12	=12	=12	=12	=12	=12
*	*	*	*	*	*rep	*	*rep	*rep	*	*	*	*	*	*	*	*	*	*	*	*	*	*	*rep	*rep	*	*	*	*	*	*	*	*	*
!	!LO:TX:a:t=1	!	!	!	!LO:SIC:s=2BB\	!LO:HP:t=cres.	!	!	!	!	!	!	!	!	!	!	!	!	!	!	!	!	!	!	!	!	!	!	!	!	!	!	!
2r	2r	.	4Ree\	.	2Rettt\	<	4BB\	16BB/LL	.	8An/L	.	8d#/L	.	8b'\L	.	2r	2r	.	2d# 2An\	.	2B_ 2BB/_	.	2f#/	2d#X\	.	8r	.	2b/	.	2r	.	8r	.
.	.	.	.	.	.	.	.	16BB/	.	.	.	.	.	.	.	.	.	.	.	.	.	.	.	.	.	.	.	.	.	.	.	.	.
.	.	.	.	.	.	.	.	16BB/	.	8A/	.	8d#/	.	(16dd#\L	.	.	.	.	.	.	.	.	.	.	.	(16d#/LL	.	.	.	.	.	(16dd#\LL	.
.	.	.	.	.	.	.	.	16BB/	.	.	.	.	.	16ee\JJ	.	.	.	.	.	.	.	.	.	.	.	16e/JJ	.	.	.	.	.	16ee\JJ	.
.	.	.	4r	.	.	.	4rCC	16BB/	.	8A/	.	8d#/	.	4ff#\)	.	.	.	.	.	.	.	.	.	.	.	4f#/)	.	.	.	.	.	4ff#\)	.
.	.	.	.	.	.	.	.	16BB/	.	.	.	.	.	.	.	.	.	.	.	.	.	.	.	.	.	.	.	.	.	.	.	.	.
.	.	.	.	.	.	.	.	16BB/	.	8A/J	.	8d#/J	.	.	.	.	.	.	.	.	.	.	.	.	.	.	.	.	.	.	.	.	.
.	.	.	.	.	.	.	.	16BB/JJ	.	.	.	.	.	.	.	.	.	.	.	.	.	.	.	.	.	.	.	.	.	.	.	.	.
*	*	*	*	*	*Xrep	*	*Xrep	*Xrep	*	*	*	*	*	*	*	*	*	*	*	*	*	*	*Xrep	*Xrep	*	*	*	*	*	*	*	*	*
*	*	*	*	*	*	*	*	*	*	*	*	*	*	*	*	*	*	*	*	*	*	*	*v	*v	*	*	*	*	*	*	*	*	*
=13	=13	=13	=13	=13	=13	=13	=13	=13	=13	=13	=13	=13	=13	=13	=13	=13	=13	=13	=13	=13	=13	=13	=13	=13	=13	=13	=13	=13	=13	=13	=13	=13
*	*	*	*	*	*rep	*	*rep	*rep	*	*	*	*	*	*	*	*	*	*	*	*	*	*	*	*	*	*	*	*	*	*	*	*
.	16qqRa/LL	.	.	.	.	.	.	.	.	.	.	.	.	.	.	.	.	.	.	.	.	.	.	.	.	.	.	.	.	.	.	.
.	16qqRa/JJ	.	.	.	.	.	.	.	.	.	.	.	.	(8qcc#/	.	.	.	.	.	.	.	.	.	.	.	.	(8qcc#/	.	.	.	.	.
!	!	!	!	!	!LO:SIC:s=2BB\	!	!	!	!	!	!	!	!	!	!	!	!	!	!	!	!	!	!	!	!	!	!	!	!	!	!	!
2r	4Ra/	.	8Ree\	.	2Rettt\	.	4BB\	16BB/LL	.	8G#/L	.	8e/L	.	8b\L)	.	2r	2r	.	2e 2G#\	.	2B_ 2BB/_	.	2g#X 2e\	.	2r	.	8b/L)	.	2r	.	2r	.
.	.	.	.	.	.	.	.	16BB/	.	.	.	.	.	.	.	.	.	.	.	.	.	.	.	.	.	.	.	.	.	.	.	.
.	.	.	8r	.	.	.	.	16BB/	.	8G#/	.	8e/	.	8a#'\	.	.	.	.	.	.	.	.	.	.	.	.	8a#'/	.	.	.	.	.
.	.	.	.	.	.	.	.	16BB/	.	.	.	.	.	.	.	.	.	.	.	.	.	.	.	.	.	.	.	.	.	.	.	.
.	4r	.	8Ree\	.	.	.	4rCC	16BB/	.	8G#/	.	8e/	.	8b'\	.	.	.	.	.	.	.	.	.	.	.	.	8b'/	.	.	.	.	.
.	.	.	.	.	.	.	.	16BB/	.	.	.	.	.	.	.	.	.	.	.	.	.	.	.	.	.	.	.	.	.	.	.	.
.	.	.	8r	.	.	.	.	16BB/	.	8G#/J	.	8e/J	.	8a#'\J	.	.	.	.	.	.	.	.	.	.	.	.	8a#'/J	.	.	.	.	.
.	.	.	.	.	.	.	.	16BB/JJ	.	.	.	.	.	.	.	.	.	.	.	.	.	.	.	.	.	.	.	.	.	.	.	.
*	*	*	*	*	*Xrep	*	*Xrep	*Xrep	*	*	*	*	*	*	*	*	*	*	*	*	*	*	*	*	*	*	*	*	*	*	*	*
=14	=14	=14	=14	=14	=14	=14	=14	=14	=14	=14	=14	=14	=14	=14	=14	=14	=14	=14	=14	=14	=14	=14	=14	=14	=14	=14	=14	=14	=14	=14	=14	=14
*	*	*	*	*	*	*	*	*	*	*	*	*	*	*	*	*	*	*	*	*	*	*	*^	*	*	*	*	*	*	*	*	*
*	*	*	*	*	*rep	*	*rep	*rep	*	*	*	*	*	*	*	*	*	*	*	*	*	*	*	*	*	*	*	*	*	*	*	*	*
!	!	!	!	!	!LO:SIC:s=2BB\	!	!	!	!	!	!	!	!	!	!	!	!	!	!	!	!	!	!	!	!	!	!	!	!	!	!	!	!
2r	2r	.	4Ree\	.	2Rettt\	.	4BB\	16BB/LL	.	8Gn/L	.	8e/L	.	8b'\L	.	2r	2r	.	2e 2Gn\	.	2B] 2BB/]	.	2gn/	2e\	.	8r	.	2b/	.	2r	.	8r	.
.	.	.	.	.	.	.	.	16BB/	.	.	.	.	.	.	.	.	.	.	.	.	.	.	.	.	.	.	.	.	.	.	.	.	.
.	.	.	.	.	.	.	.	16BB/	.	8G/	.	8e/	.	(16ee\L	.	.	.	.	.	.	.	.	.	.	.	16e/LL	.	.	.	.	.	16ee\LL	.
.	.	.	.	.	.	.	.	16BB/	.	.	.	.	.	16ff#\JJ	.	.	.	.	.	.	.	.	.	.	.	16f#/JJ	.	.	.	.	.	16ff#\JJ	.
!	!	!	!	!	!	!	!	!	!	!	!	!	!	!LO:SIC:v:s=4ggn\)	!	!	!	!	!	!	!	!	!	!	!	!	!	!	!	!	!	!	!
.	.	.	4r	.	.	.	4rCC	16BB/	.	8G/	.	8e/	.	4gg#\)	.	.	.	.	.	.	.	.	.	.	.	4gn/	.	.	.	.	.	4ggn\	.
.	.	.	.	.	.	.	.	16BB/	.	.	.	.	.	.	.	.	.	.	.	.	.	.	.	.	.	.	.	.	.	.	.	.	.
.	.	.	.	.	.	.	.	16BB/	.	8G/J	.	8e/J	.	.	.	.	.	.	.	.	.	.	.	.	.	.	.	.	.	.	.	.	.
.	.	.	.	.	.	.	.	16BB/JJ	.	.	.	.	.	.	.	.	.	.	.	.	.	.	.	.	.	.	.	.	.	.	.	.	.
*	*	*	*	*	*Xrep	*	*Xrep	*Xrep	*	*	*	*	*	*	*	*	*	*	*	*	*	*	*	*	*	*	*	*	*	*	*	*	*
=15	=15	=15	=15	=15	=15	=15	=15	=15	=15	=15	=15	=15	=15	=15	=15	=15	=15	=15	=15	=15	=15	=15	=15	=15	=15	=15	=15	=15	=15	=15	=15	=15	=15
*	*	*	*	*	*	*	*	*	*	*	*	*	*	*	*	*	*	*	*	*	*	*	*	*	*	*	*	*^	*	*	*	*	*
*	*	*	*	*	*rep	*	*rep	*rep	*	*	*	*	*	*	*	*	*	*	*	*	*	*	*	*	*	*	*	*	*2\right	*	*	*	*	*
!	!	!	!	!	!LO:SIC:s=2BB\	!	!	!	!	!	!	!	!	!LO:TX:a:t=divisi	!	!	!	!	!	!	!	!	!	!	!	!	!	!	!	!	!LO:TX:a:t=Col 1°. //	!	!	!
2r	2r	.	4Ree\	.	2Rettt\	.	4BB\	16BB/LL	.	8A#XL 8F#/	.	8eL 8c#/	.	8aa#\	.	2r	2r	.	2e 2F#\	.	[2BB/	.	2f#/	2c#\	.	8a#/	.	[2cc#/	[2a#\	.	8a#/yy	.	8a#/	.
.	.	.	.	.	.	.	.	16BB/	.	.	.	.	.	.	.	.	.	.	.	.	.	.	.	.	.	.	.	.	.	.	.	.	.	.
.	.	.	.	.	.	.	.	16BB/	.	8A# 8F#/	.	8e 8c#/	.	4eee 4ee\	.	.	.	.	.	.	.	.	.	.	.	4ee^<\	.	.	.	.	4ee^<\yy	.	4ee^<\	.
.	.	.	.	.	.	.	.	16BB/	.	.	.	.	.	.	.	.	.	.	.	.	.	.	.	.	.	.	.	.	.	.	.	.	.	.
.	.	.	4r	.	.	.	4rCC	16BB/	.	8A# 8F#/	.	8e 8c#/	.	.	.	.	.	.	.	.	.	.	.	.	.	.	.	.	.	.	.	.	.	.
.	.	.	.	.	.	.	.	16BB/	.	.	.	.	.	.	.	.	.	.	.	.	.	.	.	.	.	.	.	.	.	.	.	.	.	.
.	.	.	.	.	.	.	.	16BB/	.	8A#J 8F#/	.	8eJ 8c#/	.	8ccc# 8cc#\	.	.	.	.	.	.	.	.	.	.	.	8cc#\	.	.	.	.	8cc#\yy	.	8cc#\	.
.	.	.	.	.	.	.	.	16BB/JJ	.	.	.	.	.	.	.	.	.	.	.	.	.	.	.	.	.	.	.	.	.	.	.	.	.	.
*	*	*	*	*	*Xrep	*	*Xrep	*Xrep	*	*	*	*	*	*	*	*	*	*	*	*	*	*	*	*	*	*	*	*	*	*	*	*	*	*
=16	=16	=16	=16	=16	=16	=16	=16	=16	=16	=16	=16	=16	=16	=16	=16	=16	=16	=16	=16	=16	=16	=16	=16	=16	=16	=16	=16	=16	=16	=16	=16	=16	=16	=16
*	*	*	*	*	*rep	*	*rep	*rep	*	*	*	*	*	*	*	*	*	*	*	*	*	*	*	*	*	*	*	*	*	*	*	*	*	*
!	!	!	!	!	!LO:SIC:s=2BB\	!	!	!	!	!	!	!	!	!	!	!	!	!	!	!	!	!	!	!	!	!	!	!	!	!	!	!	!	!
2r	2r	.	4Ree\	.	2Rettt\	.	4BB\	16BB/LL	.	8A#L 8F#/	.	8eL 8c#/	.	8ggg# 8gg#\	.	2r	2r	.	2e 2F#\	.	2BB/_	.	2f#/	2c#\	.	8gg#\	.	2cc#/]	2a#\]	.	8gg#X\yy	.	8gg#X\	.
.	.	.	.	.	.	.	.	16BB/	.	.	.	.	.	.	.	.	.	.	.	.	.	.	.	.	.	.	.	.	.	.	.	.	.	.
.	.	.	.	.	.	.	.	16BB/	.	8A# 8F#/	.	8e 8c#/	.	4fff# 4ff#\	.	.	.	.	.	.	.	.	.	.	.	4ff#^<\	.	.	.	.	4ff#^<\yy	.	4ff#^<\	.
.	.	.	.	.	.	.	.	16BB/	.	.	.	.	.	.	.	.	.	.	.	.	.	.	.	.	.	.	.	.	.	.	.	.	.	.
.	.	.	4r	.	.	.	4rCC	16BB/	.	8A# 8F#/	.	8e 8c#/	.	.	.	.	.	.	.	.	.	.	.	.	.	.	.	.	.	.	.	.	.	.
.	.	.	.	.	.	.	.	16BB/	.	.	.	.	.	.	.	.	.	.	.	.	.	.	.	.	.	.	.	.	.	.	.	.	.	.
.	.	.	.	.	.	.	.	16BB/	.	8A#J 8F#/	.	8eJ 8c#/	.	8eee 8ee\	.	.	.	.	.	.	.	.	.	.	.	8ee\	.	.	.	.	8ee\yy	.	8ee\	.
.	.	.	.	.	.	.	.	16BB/JJ	.	.	.	.	.	.	.	.	.	.	.	.	.	.	.	.	.	.	.	.	.	.	.	.	.	.
*	*	*	*	*	*Xrep	*	*Xrep	*Xrep	*	*Xtremolo	*	*Xtremolo	*	*	*	*	*	*	*	*	*	*	*	*	*	*	*	*	*	*	*	*	*	*
*	*	*	*	*	*	*	*	*Xtremolo	*	*	*	*	*	*	*	*	*	*	*	*	*	*	*	*	*	*	*	*	*	*	*	*	*	*
*	*	*	*	*	*	*	*v	*v	*	*	*	*	*	*	*	*	*	*	*	*	*	*	*v	*v	*	*	*	*v	*v	*	*	*	*	*
=17	=17	=17	=17	=17	=17	=17	=17	=17	=17	=17	=17	=17	=17	=17	=17	=17	=17	=17	=17	=17	=17	=17	=17	=17	=17	=17	=17	=17	=17	=17	=17
!LO:TX:a:t=2.	!LO:TX:a:t=2.	!	!LO:TX:a:t=2.	!	!LO:SIC:s=8BB\	!	!	!	!	!	!	!	!	!	!	!	!	!	!	!	!	!	!	!LO:TX:a:t=col Picolo //	!	!	!	!	!	!	!
2r	2r	.	2r	.	8Re\	.	8BB/	.	8B 8F#/	.	8d#/L	.	16ddd#LL 16dd#\	.	2r	8BB/	.	8d# 8F#\	.	8BB/]	.	2r	.	16dd#\LLyy	.	8r	.	16dd#\LLyy	.	16dd#\LL	.
.	.	.	.	.	.	.	.	.	.	.	.	.	16fff# 16ff#\	.	.	.	.	.	.	.	.	.	.	16ff#\yy	.	.	.	16ff#\yy	.	16ff#\	.
.	.	.	.	.	8r	.	8r	.	8f# 8d#\	.	8b/J	.	16eee 16ee\	.	.	8r	.	8r	.	8r	.	.	.	16ee\yy	.	8dd# 8b\	.	16ee\yy	.	16ee\	.
.	.	.	.	.	.	.	.	.	.	.	.	.	16ddd#JJ 16dd#\	.	.	.	.	.	.	.	.	.	.	16dd#\JJyy	.	.	.	16dd#\JJyy	.	16dd#\JJ	.
!	!	!	!	!	!LO:SIC:s=8E/	!	!	!	!	!	!	!	!	!	!	!	!	!	!	!	!	!	!	!	!	!	!	!	!	!	!
.	.	.	.	.	8Re/	.	8E\	.	8r	.	8r	.	16ccc#LL 16cc#\	.	.	8E\	.	8c# 8G#\	.	8g# 8e\	.	.	.	16cc#\LLyy	.	8r	.	16cc#\LLyy	.	16cc#\LL	.
.	.	.	.	.	.	.	.	.	.	.	.	.	16eee 16ee\	.	.	.	.	.	.	.	.	.	.	16ee\yy	.	.	.	16ee\yy	.	16ee\	.
.	.	.	.	.	8r	.	8r	.	8e\	.	8cc# 8g#/	.	16ddd# 16dd#\	.	.	8r	.	8r	.	8r	.	.	.	16dd#\yy	.	8ee 8cc#\	.	16dd#\yy	.	16dd#\	.
.	.	.	.	.	.	.	.	.	.	.	.	.	16ccc#JJ 16cc#\	.	.	.	.	.	.	.	.	.	.	16cc#\JJyy	.	.	.	16cc#\JJyy	.	16cc#\JJ	.
=18	=18	=18	=18	=18	=18	=18	=18	=18	=18	=18	=18	=18	=18	=18	=18	=18	=18	=18	=18	=18	=18	=18	=18	=18	=18	=18	=18	=18	=18	=18	=18
*	*	*	*	*	*	*	*	*	*	*	*	*	*	*	*	*	*	*	*	*^	*	*^	*	*	*	*	*	*	*	*	*
*	*	*	*	*	*rep	*	*	*	*	*	*	*	*	*	*	*	*	*	*	*	*	*	*	*	*	*	*	*	*	*	*	*	*
!	!	!	!	!	!LO:SIC:s=8BB\	!	!	!	!	!	!	!	!	!	!	!	!	!	!	!	!	!	!	!	!	!	!	!	!	!	!	!	!
2r	2r	.	2r	.	8Re\	.	8F#\	.	8r	.	8r	.	16bbLL 16b\	.	2r	8F#\	.	8d# 8F#\	.	8f#/	8f#\	.	8r	8ryy	.	16b\LLyy	.	8ryy	.	16b\LLyy	.	16b\LL	.
.	.	.	.	.	.	.	.	.	.	.	.	.	16ddd# 16dd#\	.	.	.	.	.	.	.	.	.	.	.	.	16dd#\yy	.	.	.	16dd#\yy	.	16dd#\	.
.	.	.	.	.	8r	.	8r	.	8b\	.	8dd# 8f#/	.	16ccc# 16cc#\	.	.	8r	.	8r	.	8r	8ryy	.	8f#/	8f#\	.	16cc#\yy	.	8dd# 8b\	.	16cc#\yy	.	16cc#\	.
.	.	.	.	.	.	.	.	.	.	.	.	.	16bbJJ 16b\	.	.	.	.	.	.	.	.	.	.	.	.	16b\JJyy	.	.	.	16b\JJyy	.	16b\JJ	.
!	!	!	!	!	!LO:SIC:s=8E/	!	!	!	!	!	!	!	!	!	!	!	!	!	!	!	!	!	!	!	!	!	!	!	!	!	!	!	!
.	.	.	.	.	8Re/	.	8F#\	.	8r	.	8r	.	16aa#LL 16a#\	.	.	8F#\	.	8e 8F#\	.	8f#/	8f#\	.	8r	8ryy	.	16a#\LLyy	.	8r	.	16a#\LLyy	.	16a#\LL	.
.	.	.	.	.	.	.	.	.	.	.	.	.	16ccc# 16cc#\	.	.	.	.	.	.	.	.	.	.	.	.	16cc#\yy	.	.	.	16cc#\yy	.	16cc#\	.
.	.	.	.	.	8r	.	8r	.	8a#\	.	8ee 8f#/	.	16bb 16b\	.	.	8r	.	8r	.	8r	8ryy	.	8f#/	8f#\	.	16b\yy	.	8ee 8cc#\	.	16b\yy	.	16b\	.
.	.	.	.	.	.	.	.	.	.	.	.	.	16aa#JJ 16a#\	.	.	.	.	.	.	.	.	.	.	.	.	16a#\JJyy	.	.	.	16a#\JJyy	.	16a#\JJ	.
*	*	*	*	*	*Xrep	*	*	*	*	*	*	*	*	*	*	*	*	*	*	*	*	*	*	*	*	*	*	*	*	*	*	*	*
*	*	*	*	*	*	*	*	*	*	*	*	*	*	*	*	*	*	*	*	*v	*v	*	*	*	*	*	*	*	*	*	*	*	*
*	*	*	*	*	*	*	*	*	*	*	*	*	*	*	*	*	*	*	*	*	*	*v	*v	*	*	*	*	*	*	*	*	*
!!LO:PB:g=original
=19	=19	=19	=19	=19	=19	=19	=19	=19	=19	=19	=19	=19	=19	=19	=19	=19	=19	=19	=19	=19	=19	=19	=19	=19	=19	=19	=19	=19	=19	=19	=19
*	*	*	*	*	*	*	*	*	*	*	*	*	*	*	*	*	*	*	*	*	*	*	*	*	*	*^	*	*	*	*	*
*	*	*	*tremolo	*	*	*	*	*	*tremolo	*	*tremolo	*	*	*	*	*	*	*	*	*	*	*	*	*	*	*	*	*	*	*	*	*
*	*	*	*2\right	*	*	*	*	*	*2\right	*	*	*	*	*	*	*	*	*	*	*	*	*	*	*	*	*	*	*	*	*	*	*
!	!	!LO:DY:rj	!	!LO:DY:rj	!LO:SIC:s=2BBT\	!	!	!LO:DY:rj	!	!	!	!LO:DY:rj	!	!	!	!LO:TX:a:t=Col b&colon; //	!LO:DY:rj	!LO:TX:a:t=Col b&colon; //	!LO:DY:rj	!	!LO:DY:rj	!	!	!	!LO:DY:rj	!	!	!LO:DY:rj	!LO:TX:a:t=Col Vº 1º //	!	!LO:TX:a:t=Col V.° 1° //	!
4Ra/	2RaTT/	f	16Ree\LL	f	2Rett\	.	8BB/	f	16b\LL	.	16dd#LL 16f#/	f	16bbLL 16b\	.	2b 2d#X/	8BB/yy	fy	8BB/yy	fy	2f# [2B/	f	2f# [2d#X\	.	[2b 2f#/	f	[2dd#/	[2b\	f	16bbLLyy 16b\yy	.	16bbLLyy 16b\yy	.
.	.	.	16Ree\	.	.	.	.	.	16b\	.	16dd# 16f#/	.	(16b\	.	.	.	.	.	.	.	.	.	.	.	.	.	.	.	(y16b\yy	.	(y16b\yy	.
.	.	.	16Ree\	.	.	.	4B^<\	.	16b\	.	16dd# 16f#/	.	16cc#\	.	.	4B^<\yy	.	4B^<\yy	.	.	.	.	.	.	.	.	.	.	16cc#\yy	.	16cc#\yy	.
.	.	.	16Ree\	.	.	.	.	.	16b\	.	16dd# 16f#/	.	16dd#\JJ	.	.	.	.	.	.	.	.	.	.	.	.	.	.	.	16dd#\JJyy	.	16dd#\JJyy	.
4Ra/	.	.	16Ree\	.	.	.	.	.	16b\	.	16dd# 16f#/	.	16ee\LL	.	.	.	.	.	.	.	.	.	.	.	.	.	.	.	16ee\LLyy	.	16ee\LLyy	.
.	.	.	16Ree\	.	.	.	.	.	16b\	.	16dd# 16f#/	.	16ff#\	.	.	.	.	.	.	.	.	.	.	.	.	.	.	.	16ff#\yy	.	16ff#\yy	.
.	.	.	16Ree\	.	.	.	8A#\	.	16b\	.	16dd# 16f#/	.	16gg#\	.	.	8A#\yy	.	8A#\yy	.	.	.	.	.	.	.	.	.	.	16gg#\yy	.	16gg#\yy	.
.	.	.	16Ree\JJ	.	.	.	.	.	16b\JJ	.	16dd#JJ 16f#/	.	16aa#\JJ)	.	.	.	.	.	.	.	.	.	.	.	.	.	.	.	16aa#\JJ)yy	.	16aa#\JJ)yy	.
=20	=20	=20	=20	=20	=20	=20	=20	=20	=20	=20	=20	=20	=20	=20	=20	=20	=20	=20	=20	=20	=20	=20	=20	=20	=20	=20	=20	=20	=20	=20	=20	=20
!	!	!	!	!	!LO:SIC:s=4BB\	!	!	!	!	!	!	!	!	!	!	!	!	!	!	!	!	!	!	!	!	!	!	!	!	!	!	!
4Ra/	4Ra/	.	4Ree\	.	4Re\	.	8G#^<\	.	16b\LL	.	16dd#LL 16g#/	.	8bb\	.	8r	8G#^<\yy	.	8G#^<\yy	.	8g# 8B/]	.	8g#X 8d#X\]	.	8b] 8g#/	.	8dd#/]	8b\]	.	8bb\yy	.	8bb\yy	.
.	.	.	.	.	.	.	.	.	16b\	.	16dd# 16g#/	.	.	.	.	.	.	.	.	.	.	.	.	.	.	.	.	.	.	.	.	.
.	.	.	.	.	.	.	4G#\	.	16b\	.	16dd# 16g#/	.	4dd#\	.	4g#X 4d#X/	4G#\yy	.	4G#\yy	.	4g# 4B/	.	4g# 4d#\	.	4b 4g#/	.	4dd#^/	4b\	.	4dd#\yy	.	4dd#\yy	.
.	.	.	.	.	.	.	.	.	16b\JJ	.	16dd# 16g#/	.	.	.	.	.	.	.	.	.	.	.	.	.	.	.	.	.	.	.	.	.
4r	4r	.	4r	.	4r	.	.	.	16b#X\LL	.	16dd# 16g#/	.	.	.	.	.	.	.	.	.	.	.	.	.	.	.	.	.	.	.	.	.
.	.	.	.	.	.	.	.	.	16b#\	.	16dd# 16g#/	.	.	.	.	.	.	.	.	.	.	.	.	.	.	.	.	.	.	.	.	.
.	.	.	.	.	.	.	8F#^<\	.	16b#\	.	16dd# 16g#/	.	8dd#\	.	8g# 8d#/	8F#^<\yy	.	8F#^<\yy	.	8g# 8B#X/	.	8g# 8d#\	.	8b#X 8g#/	.	8dd#/	8b#X\	.	8dd#\yy	.	8dd#\yy	.
.	.	.	.	.	.	.	.	.	16b#\JJ	.	16dd#JJ 16g#/	.	.	.	.	.	.	.	.	.	.	.	.	.	.	.	.	.	.	.	.	.
=21	=21	=21	=21	=21	=21	=21	=21	=21	=21	=21	=21	=21	=21	=21	=21	=21	=21	=21	=21	=21	=21	=21	=21	=21	=21	=21	=21	=21	=21	=21	=21	=21
*	*	*	*	*	*	*	*	*	*	*	*	*	*	*	*	*	*	*	*	*^	*	*	*	*^	*	*	*	*	*	*	*	*
*	*	*	*	*	*	*	*	*	*	*	*	*	*	*	*	*	*	*	*	*	*	*	*	*	*	*2\right	*	*	*	*	*	*	*	*
!	!	!	!	!	!LO:SIC:s=2ET/	!	!	!	!	!	!	!	!	!	!	!	!	!	!	!	!	!	!	!	!	!	!	!	!	!	!	!	!	!
4Ra/	2RaTT/	.	16Ree\LL	.	2Rett/	.	4E\	.	16cc#\LL	.	16eeLL 16g#/	.	(16cc#\LL	.	2g#X 2e/	4E\yy	.	4E\yy	.	2g#/	2c#\	.	2g#X 2e\	.	2cc#/	2g#\	.	2ee/	2cc#\	.	(y16cc#\LLyy	.	(y16cc#\LLyy	.
.	.	.	16Ree\	.	.	.	.	.	16cc#\	.	16ee 16g#/	.	16dd#\	.	.	.	.	.	.	.	.	.	.	.	.	.	.	.	.	.	16dd#\yy	.	16dd#\yy	.
.	.	.	16Ree\	.	.	.	.	.	16cc#\	.	16ee 16g#/	.	16ee\	.	.	.	.	.	.	.	.	.	.	.	.	.	.	.	.	.	16ee\yy	.	16ee\yy	.
.	.	.	16Ree\	.	.	.	.	.	16cc#\	.	16ee 16g#/	.	16ff#\JJ	.	.	.	.	.	.	.	.	.	.	.	.	.	.	.	.	.	16ff#\JJyy	.	16ff#\JJyy	.
4Ra/	.	.	16Ree\	.	.	.	4C#\	.	16cc#\	.	16ee 16g#/	.	16gg#\LL	.	.	4C#\yy	.	4C#\yy	.	.	.	.	.	.	.	.	.	.	.	.	16gg#\LLyy	.	16gg#\LLyy	.
.	.	.	16Ree\	.	.	.	.	.	16cc#\	.	16ee 16g#/	.	16aa#\	.	.	.	.	.	.	.	.	.	.	.	.	.	.	.	.	.	16aa#\yy	.	16aa#\yy	.
.	.	.	16Ree\	.	.	.	.	.	16cc#\	.	16ee 16g#/	.	16bb\	.	.	.	.	.	.	.	.	.	.	.	.	.	.	.	.	.	16bb\yy	.	16bb\yy	.
.	.	.	16Ree\JJ	.	.	.	.	.	16cc#\JJ	.	16eeJJ 16g#/	.	16ccc#\JJ)	.	.	.	.	.	.	.	.	.	.	.	.	.	.	.	.	.	16ccc#\JJ)yy	.	16ccc#\JJ)yy	.
=22	=22	=22	=22	=22	=22	=22	=22	=22	=22	=22	=22	=22	=22	=22	=22	=22	=22	=22	=22	=22	=22	=22	=22	=22	=22	=22	=22	=22	=22	=22	=22	=22	=22	=22
*	*	*	*	*	*	*	*	*	*	*	*	*	*	*	*	*	*	*	*	*	*	*	*^	*	*	*	*	*	*	*	*	*	*	*
!	!	!	!	!	!LO:SIC:s=4BB\	!	!	!	!	!	!	!	!	!	!	!	!	!	!	!	!	!	!	!	!	!	!	!	!	!	!	!	!	!	!
4Ra/	4Ra/	.	4Ree\	.	4Re\	.	4F#\	.	16b\LL	.	16dd#LL 16f#/	.	((16ccc#\LL	.	4b 4f#/	4F#\yy	.	4F#\yy	.	4f#/	4B\	.	4f#/	4f#\	.	4b/	2f#\	.	4dd#/	4b\	.	(y(y16ccc#\LLyy	.	(y(y16ccc#\LLyy	.
.	.	.	.	.	.	.	.	.	16b\	.	16dd# 16f#/	.	16bb\	.	.	.	.	.	.	.	.	.	.	.	.	.	.	.	.	.	.	16bb\yy	.	16bb\yy	.
.	.	.	.	.	.	.	.	.	16b\	.	16dd# 16f#/	.	16aa#\	.	.	.	.	.	.	.	.	.	.	.	.	.	.	.	.	.	.	16aa#\yy	.	16aa#\yy	.
.	.	.	.	.	.	.	.	.	16b\JJ	.	16dd#JJ 16f#/	.	16gg#\JJ)	.	.	.	.	.	.	.	.	.	.	.	.	.	.	.	.	.	.	16gg#\JJ)yy	.	16gg#\JJ)yy	.
4r	4r	.	4r	.	4r	.	4FF#/	.	16a#\LL	.	16eeLL 16f#/	.	(16ff#\LL	.	4cc# 4f#/	4FF#/yy	.	4FF#/yy	.	4f#/	4A#X\	.	4f#/	4e\	.	4a#X/	.	.	4ee/	4cc#\	.	(y16ff#\LLyy	.	(y16ff#\LLyy	.
.	.	.	.	.	.	.	.	.	16a#\	.	16ee 16f#/	.	16ee\	.	.	.	.	.	.	.	.	.	.	.	.	.	.	.	.	.	.	16ee\yy	.	16ee\yy	.
.	.	.	.	.	.	.	.	.	16a#\	.	16ee 16f#/	.	16dd#\	.	.	.	.	.	.	.	.	.	.	.	.	.	.	.	.	.	.	16dd#\yy	.	16dd#\yy	.
.	.	.	.	.	.	.	.	.	16a#\JJ	.	16eeJJ 16f#/	.	16cc#\JJ))	.	.	.	.	.	.	.	.	.	.	.	.	.	.	.	.	.	.	16cc#\JJ))yy	.	16cc#\JJ))yy	.
*	*	*	*	*	*	*	*	*	*	*	*	*	*	*	*	*	*	*	*	*v	*v	*	*	*	*	*	*	*	*	*	*	*	*	*	*
=23	=23	=23	=23	=23	=23	=23	=23	=23	=23	=23	=23	=23	=23	=23	=23	=23	=23	=23	=23	=23	=23	=23	=23	=23	=23	=23	=23	=23	=23	=23	=23	=23	=23	=23
!LO:TX:t=P:problem=Takty 23-26 zapisane repetycją	!LO:TX:t=P:problem=Takty 23-26 zapisane repetycją	!LO:DY:rj	!LO:TX:t=P:problem=Takty 23-26 zapisane repetycją	!LO:DY:rj	!LO:SIC:s=2BBT\	!	!	!	!	!	!	!	!	!	!	!	!	!	!	!	!	!	!	!	!	!	!	!	!	!	!	!	!	!
4Ra/yy	2RaT/yy	fy	16Ree\LLyy	fy	2Rett\	.	8BB/	.	16b\LL	.	16dd#LL 16f#/	.	(16b\LL	.	2b 2d#X/	8BB/yy	.	8BB/yy	.	2f# [2B/	.	(2f#/	[2d#X\	.	[2b/	2f#\	.	[2dd#/	[2b\	.	(y16b\LLyy	.	(y16b\LLyy	.
.	.	.	16Ree\yy	.	.	.	.	.	16b\	.	16dd# 16f#/	.	16cc#\	.	.	.	.	.	.	.	.	.	.	.	.	.	.	.	.	.	16cc#\yy	.	16cc#\yy	.
.	.	.	16Ree\yy	.	.	.	4B^<\	.	16b\	.	16dd# 16f#/	.	16dd#\	.	.	4B^<\yy	.	4B^<\yy	.	.	.	.	.	.	.	.	.	.	.	.	16dd#\yy	.	16dd#\yy	.
.	.	.	16Ree\yy	.	.	.	.	.	16b\	.	16dd# 16f#/	.	16ee\JJ	.	.	.	.	.	.	.	.	.	.	.	.	.	.	.	.	.	16ee\JJyy	.	16ee\JJyy	.
4Ra/yy	.	.	16Ree\yy	.	.	.	.	.	16b\	.	16dd# 16f#/	.	16ff#\LL	.	.	.	.	.	.	.	.	.	.	.	.	.	.	.	.	.	16ff#\LLyy	.	16ff#\LLyy	.
.	.	.	16Ree\yy	.	.	.	.	.	16b\	.	16dd# 16f#/	.	16gg#\	.	.	.	.	.	.	.	.	.	.	.	.	.	.	.	.	.	16gg#\yy	.	16gg#\yy	.
.	.	.	16Ree\yy	.	.	.	8A#\	.	16b\	.	16dd# 16f#/	.	16aa#\	.	.	8A#\yy	.	8A#\yy	.	.	.	.	.	.	.	.	.	.	.	.	16aa#\yy	.	16aa#\yy	.
.	.	.	16Ree\JJyy	.	.	.	.	.	16b\JJ	.	16dd#JJ 16f#/	.	16bb\JJ)	.	.	.	.	.	.	.	.	.	.	.	.	.	.	.	.	.	16bb\JJ)yy	.	16bb\JJ)yy	.
*	*	*	*	*	*	*	*	*	*	*	*	*	*	*	*	*	*	*	*	*	*	*v	*v	*	*	*	*	*	*	*	*	*	*	*
=24	=24	=24	=24	=24	=24	=24	=24	=24	=24	=24	=24	=24	=24	=24	=24	=24	=24	=24	=24	=24	=24	=24	=24	=24	=24	=24	=24	=24	=24	=24	=24	=24	=24
!	!	!	!	!	!LO:SIC:s=4BB\	!	!	!	!	!	!	!	!	!	!	!	!	!	!	!	!	!	!	!	!	!	!	!	!	!	!	!	!
4Ra/yy	4Ra/yy	.	4Ree\yy	.	4Re\	.	4G#^<\	.	16b\LL	.	16dd#LL 16g#/	.	8bb\	.	8r	4G#^<\yy	.	4G#^<\yy	.	8f# 8B/]	.	8g#X 8d#X\])	.	8b/]	8g#\	.	8dd#/]	8b\]	.	8bb\yy	.	8bb\yy	.
.	.	.	.	.	.	.	.	.	16b\	.	16dd# 16g#/	.	.	.	.	.	.	.	.	.	.	.	.	.	.	.	.	.	.	.	.	.	.
.	.	.	.	.	.	.	.	.	16b\	.	16dd# 16g#/	.	4dd#^<\	.	4g#X 4d#X/	.	.	.	.	4g# 4B/	.	4g# 4d#\	.	4b^/	4g#\	.	4dd#^/	4b\	.	4dd#^<\yy	.	4dd#^<\yy	.
.	.	.	.	.	.	.	.	.	16b\JJ	.	16dd# 16g#/	.	.	.	.	.	.	.	.	.	.	.	.	.	.	.	.	.	.	.	.	.	.
4ryy	4ryy	.	4ryy	.	4r	.	4F#^<\	.	16b#X\LL	.	16dd# 16g#/	.	.	.	.	4F#^<\yy	.	4F#^<\yy	.	.	.	.	.	.	.	.	.	.	.	.	.	.	.
.	.	.	.	.	.	.	.	.	16b#\	.	16dd# 16g#/	.	.	.	.	.	.	.	.	.	.	.	.	.	.	.	.	.	.	.	.	.	.
.	.	.	.	.	.	.	.	.	16b#\	.	16dd# 16g#/	.	8dd#\	.	8g# 8d#/	.	.	.	.	8g# 8B#X/	.	8g# 8d#\	.	8b/	8g#\	.	8dd#/	8b#X\	.	8dd#\yy	.	8dd#\yy	.
.	.	.	.	.	.	.	.	.	16b#\JJ	.	16dd#JJ 16g#/	.	.	.	.	.	.	.	.	.	.	.	.	.	.	.	.	.	.	.	.	.	.
=25	=25	=25	=25	=25	=25	=25	=25	=25	=25	=25	=25	=25	=25	=25	=25	=25	=25	=25	=25	=25	=25	=25	=25	=25	=25	=25	=25	=25	=25	=25	=25	=25	=25
*	*	*	*	*	*	*	*	*	*	*	*	*	*	*	*	*	*	*	*	*^	*	*^	*	*	*	*	*	*	*	*	*	*	*
!	!	!	!	!	!LO:SIC:s=2ET/	!	!	!	!	!	!	!	!	!	!	!	!	!	!	!	!	!	!	!	!	!	!	!	!	!	!	!	!	!	!
4Ra/yy	2RaT/yy	.	16Ree\LLyy	.	2Rett/	.	4E\	.	16cc#\LL	.	16eeLL 16g#/	.	(16cc#\LL	.	2g#X 2e/	4E\yy	.	4E\yy	.	2g#/	2c#\	.	2g#X/	2e\	.	2cc#/	2g#\	.	2ee/	2cc#\	.	(y16cc#\LLyy	.	(y16cc#\LLyy	.
.	.	.	16Ree\yy	.	.	.	.	.	16cc#\	.	16ee 16g#/	.	16dd#\	.	.	.	.	.	.	.	.	.	.	.	.	.	.	.	.	.	.	16dd#\yy	.	16dd#\yy	.
.	.	.	16Ree\yy	.	.	.	.	.	16cc#\	.	16ee 16g#/	.	16ee\	.	.	.	.	.	.	.	.	.	.	.	.	.	.	.	.	.	.	16ee\yy	.	16ee\yy	.
.	.	.	16Ree\yy	.	.	.	.	.	16cc#\	.	16ee 16g#/	.	16ff#\JJ	.	.	.	.	.	.	.	.	.	.	.	.	.	.	.	.	.	.	16ff#\JJyy	.	16ff#\JJyy	.
4Ra/yy	.	.	16Ree\yy	.	.	.	4C#\	.	16cc#\	.	16ee 16g#/	.	16gg#\LL	.	.	4C#\yy	.	4C#\yy	.	.	.	.	.	.	.	.	.	.	.	.	.	16gg#\LLyy	.	16gg#\LLyy	.
.	.	.	16Ree\yyyy	.	.	.	.	.	16cc#\	.	16ee 16g#/	.	16aa#\	.	.	.	.	.	.	.	.	.	.	.	.	.	.	.	.	.	.	16aa#\yy	.	16aa#\yy	.
.	.	.	16Ree\yy	.	.	.	.	.	16cc#\	.	16ee 16g#/	.	16bb\	.	.	.	.	.	.	.	.	.	.	.	.	.	.	.	.	.	.	16bb\yy	.	16bb\yy	.
.	.	.	16Ree\JJyy	.	.	.	.	.	16cc#\JJ	.	16eeJJ 16g#/	.	16ccc#\JJ)	.	.	.	.	.	.	.	.	.	.	.	.	.	.	.	.	.	.	16ccc#\JJ)yy	.	16ccc#\JJ)yy	.
*	*	*	*Xtremolo	*	*	*	*	*	*	*	*	*	*	*	*	*	*	*	*	*	*	*	*	*	*	*	*	*	*	*	*	*	*	*	*
=26	=26	=26	=26	=26	=26	=26	=26	=26	=26	=26	=26	=26	=26	=26	=26	=26	=26	=26	=26	=26	=26	=26	=26	=26	=26	=26	=26	=26	=26	=26	=26	=26	=26	=26	=26
*	*	*	*	*	*	*	*	*	*	*	*	*	*	*	*^	*	*	*	*	*	*	*	*	*	*	*	*	*	*	*	*	*	*	*	*
!	!	!	!	!	!LO:SIC:s=4BB\	!	!	!	!	!	!	!	!	!	!	!	!	!	!	!	!	!	!	!	!	!	!	!	!	!	!	!	!	!	!	!
4Ra/yy	4Ra/yy	.	4Ree\yy	.	4Re\	.	4F#\	.	16b\LL	.	16dd#LL 16f#/	.	(16ccc#\LL	.	4b/	4f#\	4F#\yy	.	4F#\yy	.	4f#/	4B\	.	4f#/	4f#\	.	4b/	4f#\	.	4dd#/	4b\	.	(y16ccc#\LLyy	.	(y16ccc#\LLyy	.
.	.	.	.	.	.	.	.	.	16b\	.	16dd# 16f#/	.	16bb\	.	.	.	.	.	.	.	.	.	.	.	.	.	.	.	.	.	.	.	16bb\yy	.	16bb\yy	.
.	.	.	.	.	.	.	.	.	16b\	.	16dd# 16f#/	.	16aa#\	.	.	.	.	.	.	.	.	.	.	.	.	.	.	.	.	.	.	.	16aa#\yy	.	16aa#\yy	.
.	.	.	.	.	.	.	.	.	16b\JJ	.	16dd#JJ 16f#/	.	16gg#\JJ)	.	.	.	.	.	.	.	.	.	.	.	.	.	.	.	.	.	.	.	16gg#\JJ)yy	.	16gg#\JJ)yy	.
4ryy	4ryy	.	4ryy	.	4r	.	4FF#/	.	16a#\LL	.	16eeLL 16f#/	.	(16ff#\LL	.	4cc#/	4f#\	4FF#/yy	.	4FF#/yy	.	4f#/	4A#X\	.	4f#/	4e\	.	4a#/	4f#\	.	4ee/	4cc#\	.	(y16ff#\LLyy	.	(y16ff#\LLyy	.
.	.	.	.	.	.	.	.	.	16a#\	.	16ee 16f#/	.	16ee\	.	.	.	.	.	.	.	.	.	.	.	.	.	.	.	.	.	.	.	16ee\yy	.	16ee\yy	.
.	.	.	.	.	.	.	.	.	16a#\	.	16ee 16f#/	.	16dd#\	.	.	.	.	.	.	.	.	.	.	.	.	.	.	.	.	.	.	.	16dd#\yy	.	16dd#\yy	.
.	.	.	.	.	.	.	.	.	16a#\JJ	.	16eeJJ 16f#/	.	16cc#\JJ)	.	.	.	.	.	.	.	.	.	.	.	.	.	.	.	.	.	.	.	16cc#\JJ)yy	.	16cc#\JJ)yy	.
*	*	*	*	*	*	*	*	*	*Xtremolo	*	*Xtremolo	*	*	*	*	*	*	*	*	*	*	*	*	*	*	*	*	*	*	*	*	*	*	*	*	*
*	*	*	*	*	*	*	*	*	*	*	*	*	*	*	*	*	*	*	*	*	*v	*v	*	*	*	*	*v	*v	*	*v	*v	*	*	*	*	*
*	*	*	*	*	*	*	*	*	*	*	*	*	*	*	*v	*v	*	*	*	*	*	*	*v	*v	*	*	*	*	*	*	*	*	*
!!LO:PB:g=original
=27	=27	=27	=27	=27	=27	=27	=27	=27	=27	=27	=27	=27	=27	=27	=27	=27	=27	=27	=27	=27	=27	=27	=27	=27	=27	=27	=27	=27	=27	=27	=27
*	*	*	*	*	*	*	*	*	*	*	*	*	*	*	*	*	*	*	*	*	*	*^	*	*	*	*	*	*	*	*	*
*	*	*	*	*	*	*	*	*	*	*	*	*	*	*	*	*	*	*	*	*	*	*	*	*	*	*	*	*	*	*	*8ba	*
!LO:TX:a:t=P:problem=wymazane nuty, które miały być powtórzone w tt 28-30	!LO:TX:a:t=P:problem=wymazane nuty, które miały być powtórzone w tt 28-30	!	!	!	!LO:SIC:s=8BB\	!	!	!	!	!	!	!	!	!	!	!LO:TX:t=P:problem=Trombe i trombone zamienione miejscami	!	!	!	!	!	!	!	!	!	!	!	!	!	!	!LO:TX:a:t=8va b&colon;:problem=wątpliwość, czy jest to ptrzenośnik w dół czy w górę	!
2r	2r	.	8Ree\	.	8Re\	.	8BB/	.	8f# 8B\	.	8r	.	8r	.	8b 8d#X/	8BB/	.	8B 8BB\	.	8f# 8B/	.	8f#/	8d#X\	.	8bL 8f#\	.	8dd#L 8b\	.	8dd#\L	.	8b\L	.
.	.	.	8r	.	8r	.	8r	.	8r	.	8dd# 8f#/	.	8bb 8dd#\	.	8r	8r	.	8r	.	8r	.	8r	8ryy	.	8ff# 8dd#\	.	8ff# 8dd#\	.	8ff#\	.	8dd#\	.
!	!	!	!	!	!LO:SIC:s=8E/	!	!	!	!	!	!	!	!	!	!	!	!	!	!	!	!	!	!	!	!	!	!	!	!	!	!	!
.	.	.	8Ree\	.	8Re/	.	8F#\	.	8f#\	.	8r	.	8r	.	8a#X 8c#/	8F#\	.	8F# 8FF#\	.	8f# 8A#X/	.	8f#/	8e\	.	8ee 8cc#\	.	8ee 8cc#\	.	8ee\	.	8cc#\	.
.	.	.	8r	.	8r	.	8r	.	8r	.	8ee 8f#/	.	8aa# 8cc#\	.	8r	8r	.	8r	.	8r	.	8r	8ryy	.	8cc#J 8a#\	.	8cc#J 8a#\	.	8cc#\J	.	8a#\J	.
=28	=28	=28	=28	=28	=28	=28	=28	=28	=28	=28	=28	=28	=28	=28	=28	=28	=28	=28	=28	=28	=28	=28	=28	=28	=28	=28	=28	=28	=28	=28	=28	=28
*	*	*	*rep	*	*rep	*	*	*	*rep	*	*rep	*	*rep	*	*rep	*rep	*	*rep	*	*rep	*	*rep	*rep	*	*	*	*rep	*	*rep	*	*rep	*
!	!	!	!	!	!LO:SIC:s=8BB\	!	!	!	!	!	!	!	!	!	!	!	!	!	!	!	!	!	!	!	!	!	!	!	!	!	!	!
2r	2r	.	8Ree\	.	8Re\	.	8B\	.	8f# 8B\	.	8r	.	8r	.	8b 8d#X/	8BB/	.	8B 8BB\	.	8f# 8B/	.	8f#/	8d#X\	.	8dd#L 8b\	.	8dd#L 8b\	.	8dd#\L	.	8b\L	.
.	.	.	8r	.	8r	.	8r	.	8r	.	8dd# 8f#/	.	8bb 8dd#\	.	8r	8r	.	8r	.	8r	.	8r	8ryy	.	8ff# 8dd#\	.	8ff# 8dd#\	.	8ff#\	.	8dd#\	.
!	!	!	!	!	!LO:SIC:s=8E/	!	!	!	!	!	!	!	!	!	!	!	!	!	!	!	!	!	!	!	!	!	!	!	!	!	!	!
.	.	.	8Ree\	.	8Re/	.	8F#\	.	8f#\	.	8r	.	8r	.	8a#X 8c#/	8F#\	.	8F# 8FF#\	.	8f# 8A#X/	.	8f#/	8e\	.	8ee 8cc#\	.	8ee 8cc#\	.	8ee\	.	8cc#\	.
.	.	.	8r	.	8r	.	8r	.	8r	.	8ee 8f#/	.	8aa# 8cc#\	.	8r	8r	.	8r	.	8r	.	8r	8ryy	.	8cc#J 8a#\	.	8cc#J 8a#\	.	8cc#\J	.	8a#\J	.
*	*	*	*Xrep	*	*Xrep	*	*	*	*Xrep	*	*Xrep	*	*Xrep	*	*Xrep	*Xrep	*	*Xrep	*	*Xrep	*	*Xrep	*Xrep	*	*	*	*Xrep	*	*Xrep	*	*Xrep	*
=29	=29	=29	=29	=29	=29	=29	=29	=29	=29	=29	=29	=29	=29	=29	=29	=29	=29	=29	=29	=29	=29	=29	=29	=29	=29	=29	=29	=29	=29	=29	=29	=29
*	*	*	*rep	*	*rep	*	*rep	*	*rep	*	*rep	*	*rep	*	*rep	*rep	*	*rep	*	*rep	*	*rep	*rep	*	*rep	*	*rep	*	*rep	*	*rep	*
!	!	!	!	!	!LO:SIC:s=8BB\	!	!	!	!	!	!	!	!	!	!	!	!	!	!	!	!	!	!	!	!	!	!	!	!	!	!	!
2r	2r	.	8Ree\	.	8Re\	.	8B\	.	8f# 8B\	.	8r	.	8r	.	8b 8d#X/	8BB/	.	8B 8BB\	.	8f# 8B/	.	8f#/	8d#X\	.	8dd#L 8b\	.	8dd#L 8b\	.	8dd#\L	.	8b\L	.
.	.	.	8r	.	8r	.	8r	.	8r	.	8dd# 8f#/	.	8bb 8dd#\	.	8r	8r	.	8r	.	8r	.	8r	8ryy	.	8ff# 8dd#\	.	8ff# 8dd#\	.	8ff#\	.	8dd#\	.
!	!	!	!	!	!LO:SIC:s=8E/	!	!	!	!	!	!	!	!	!	!	!	!	!	!	!	!	!	!	!	!	!	!	!	!	!	!	!
.	.	.	8Ree\	.	8Re/	.	8F#\	.	8f#\	.	8r	.	8r	.	8a#X 8c#/	8F#\	.	8F# 8FF#\	.	8f# 8A#X/	.	8f#/	8e\	.	8ee 8cc#\	.	8ee 8cc#\	.	8ee\	.	8cc#\	.
.	.	.	8r	.	8r	.	8r	.	8r	.	8ee 8f#/	.	8aa# 8cc#\	.	8r	8r	.	8r	.	8r	.	8r	8ryy	.	8cc#J 8a#\	.	8cc#J 8a#\	.	8cc#\J	.	8a#\J	.
*	*	*	*Xrep	*	*Xrep	*	*Xrep	*	*Xrep	*	*Xrep	*	*Xrep	*	*Xrep	*Xrep	*	*Xrep	*	*Xrep	*	*Xrep	*Xrep	*	*Xrep	*	*Xrep	*	*Xrep	*	*Xrep	*
=30	=30	=30	=30	=30	=30	=30	=30	=30	=30	=30	=30	=30	=30	=30	=30	=30	=30	=30	=30	=30	=30	=30	=30	=30	=30	=30	=30	=30	=30	=30	=30	=30
*	*	*	*rep	*	*rep	*	*rep	*	*rep	*	*rep	*	*rep	*	*rep	*rep	*	*rep	*	*rep	*	*rep	*rep	*	*rep	*	*rep	*	*rep	*	*rep	*
!	!	!	!	!	!LO:SIC:s=8BB\	!	!	!	!	!	!	!	!	!	!	!	!	!	!	!	!	!	!	!	!	!	!	!	!	!	!	!
2r	2r	.	8Ree\	.	8Re\	.	8B\	.	8f# 8B\	.	8r	.	8r	.	8b 8d#X/	8BB/	.	8B 8BB\	.	8f# 8B/	.	8f#/	8d#X\	.	8dd#L 8b\	.	8dd#L 8b\	.	8dd#\L	.	8b\L	.
.	.	.	8r	.	8r	.	8r	.	8r	.	8dd# 8f#/	.	8bb 8dd#\	.	8r	8r	.	8r	.	8r	.	8r	8ryy	.	8ff# 8dd#\	.	8ff# 8dd#\	.	8ff#\	.	8dd#\	.
!	!	!	!	!	!LO:SIC:s=8E/	!	!	!	!	!	!	!	!	!	!	!	!	!	!	!	!	!	!	!	!	!	!	!	!	!	!	!
.	.	.	8Ree\	.	8Re/	.	8F#\	.	8f#\	.	8r	.	8r	.	8a#X 8c#/	8F#\	.	8F# 8FF#\	.	8f# 8A#X/	.	8f#/	8e\	.	8ee 8cc#\	.	8ee 8cc#\	.	8ee\	.	8cc#\	.
.	.	.	8r	.	8r	.	8r	.	8r	.	8ee 8f#/	.	8aa# 8cc#\	.	8r	8r	.	8r	.	8r	.	8r	8ryy	.	8cc#J 8a#\	.	8cc#J 8a#\	.	8cc#\J	.	8a#\J	.
*	*	*	*Xrep	*	*Xrep	*	*Xrep	*	*Xrep	*	*Xrep	*	*Xrep	*	*Xrep	*Xrep	*	*Xrep	*	*Xrep	*	*Xrep	*Xrep	*	*Xrep	*	*Xrep	*	*Xrep	*	*Xrep	*
!LO:LB:g=original	!LO:LB:g=original	!	!LO:LB:g=original	!	!	!	!	!	!	!	!	!	!	!	!	!	!	!	!	!	!	!	!	!	!	!	!	!	!	!	!	!
=31	=31	=31	=31	=31	=31	=31	=31	=31	=31	=31	=31	=31	=31	=31	=31	=31	=31	=31	=31	=31	=31	=31	=31	=31	=31	=31	=31	=31	=31	=31	=31	=31
!	!	!	!	!	!LO:SIC:s=4BB\	!	!	!	!	!	!	!	!	!	!	!	!	!	!	!	!	!	!	!	!	!	!	!	!	!	!	!
4r	4r	.	8Ree\	.	4Re\	.	8B\	.	8f# 8B/	.	8dd# 8f#/	.	8bb 8dd#\	.	8b 8d#X/	8BB/	.	8B 8BB\	.	8f# 8B/	.	8f#/	8d#X\	.	8dd# 8b\	.	8dd# 8b\	.	8dd#\	.	8b\	.
.	.	.	8r	.	.	.	8r	.	8r	.	8r	.	8r	.	8r	8r	.	8r	.	8r	.	8r	8ryy	.	8r	.	8r	.	8r	.	8r	.
*	*	*	*tremolo	*	*	*	*	*	*tremolo	*	*tremolo	*	*tremolo	*	*	*	*	*	*	*	*	*	*	*	*	*	*	*	*	*	*	*
!	!	!LO:DY:rj	!	!	!	!	!	!	!	!LO:DY:rj	!	!	!	!LO:DY:rj	!	!	!	!	!	!	!	!	!	!	!	!	!	!LO:DY:rj	!	!	!	!LO:DY:rj
4Ra/	4RaTT/	ff	32Ree\LLL	.	4r	.	[4Gn\	.	16gn\LL	ff	16ggn\LL	.	16gggn\LL	ff	4g/	4r	.	[4Gn\	.	4r	.	[4g/	4g\	.	[4ggn [>4gn\	.	[4ggn\	ff	[4ggn\	.	[4ggn\	ff
.	.	.	32Ree\	.	.	.	.	.	.	.	.	.	.	.	.	.	.	.	.	.	.	.	.	.	.	.	.	.	.	.	.	.
.	.	.	32Ree\	.	.	.	.	.	16g\	.	16gg\	.	16ggg\	.	.	.	.	.	.	.	.	.	.	.	.	.	.	.	.	.	.	.
.	.	.	32Ree\	.	.	.	.	.	.	.	.	.	.	.	.	.	.	.	.	.	.	.	.	.	.	.	.	.	.	.	.	.
.	.	.	32Ree\	.	.	.	.	.	16g\	.	16gg\	.	16ggg\	.	.	.	.	.	.	.	.	.	.	.	.	.	.	.	.	.	.	.
.	.	.	32Ree\	.	.	.	.	.	.	.	.	.	.	.	.	.	.	.	.	.	.	.	.	.	.	.	.	.	.	.	.	.
.	.	.	32Ree\	.	.	.	.	.	16g\JJ	.	16gg\JJ	.	16ggg\JJ	.	.	.	.	.	.	.	.	.	.	.	.	.	.	.	.	.	.	.
.	.	.	32Ree\JJJ	.	.	.	.	.	.	.	.	.	.	.	.	.	.	.	.	.	.	.	.	.	.	.	.	.	.	.	.	.
*	*	*	*Xtremolo	*	*	*	*	*	*	*	*	*	*	*	*	*	*	*	*	*	*	*	*	*	*	*	*	*	*	*	*	*
=32	=32	=32	=32	=32	=32	=32	=32	=32	=32	=32	=32	=32	=32	=32	=32	=32	=32	=32	=32	=32	=32	=32	=32	=32	=32	=32	=32	=32	=32	=32	=32	=32
*	*	*	*	*	*	*	*	*	*	*	*	*	*	*	*^	*	*	*	*	*	*	*	*	*	*	*	*	*	*	*	*	*
4Ra/	4Ra/	.	4Ree\	.	2r	.	4Gn\]	.	16gn\LL	.	16ggn\LL	.	16gggn\LL	.	4g/	4g\	2r	.	4G\]	.	2r	.	4g/]	4g\	.	4gg] 4g\]	.	4gg\]	.	4gg\]	.	4gg\]	.
.	.	.	.	.	.	.	.	.	16g\	.	16gg\	.	16ggg\	.	.	.	.	.	.	.	.	.	.	.	.	.	.	.	.	.	.	.	.
.	.	.	.	.	.	.	.	.	16g\	.	16gg\	.	16ggg\	.	.	.	.	.	.	.	.	.	.	.	.	.	.	.	.	.	.	.	.
.	.	.	.	.	.	.	.	.	16g\JJ	.	16gg\JJ	.	16ggg\JJ	.	.	.	.	.	.	.	.	.	.	.	.	.	.	.	.	.	.	.	.
4r	4r	.	4r	.	.	.	8Dn\L	.	16dn\LL	.	16ddn\LL	.	16dddn\LL	.	8d/L	8d\L	.	.	8Dn\L	.	.	.	8dn/L	8dn\L	.	8ddn\L	.	8ddn\L	.	8ddn\L	.	8ddn\L	.
.	.	.	.	.	.	.	.	.	16d\	.	16dd\	.	16ddd\	.	.	.	.	.	.	.	.	.	.	.	.	.	.	.	.	.	.	.	.
.	.	.	.	.	.	.	8E\J	.	16e\	.	16ee\	.	16eee\	.	8e/J	8e\J	.	.	8E\J	.	.	.	8e/J	8e\J	.	8ee\J	.	8ee\J	.	8ee\J	.	8ee\J	.
.	.	.	.	.	.	.	.	.	16e\JJ	.	16ee\JJ	.	16eee\JJ	.	.	.	.	.	.	.	.	.	.	.	.	.	.	.	.	.	.	.	.
*	*	*	*	*	*	*	*	*	*	*	*	*	*	*	*v	*v	*	*	*	*	*	*	*	*	*	*	*	*	*	*	*	*	*
=33	=33	=33	=33	=33	=33	=33	=33	=33	=33	=33	=33	=33	=33	=33	=33	=33	=33	=33	=33	=33	=33	=33	=33	=33	=33	=33	=33	=33	=33	=33	=33	=33
*	*	*	*	*	*	*	*	*	*	*	*	*	*	*	*	*	*	*	*	*^	*	*	*	*	*	*	*	*	*	*	*	*
*	*	*	*tremolo	*	*	*	*tremolo	*	*	*	*	*	*	*	*	*	*	*	*	*	*	*	*	*	*	*	*	*	*	*	*	*	*
*	*	*	*	*	*	*	*2\right	*	*	*	*2\right	*	*2\right	*	*	*2\right	*	*	*	*	*	*	*	*	*	*	*	*2\right	*	*2\right	*	*2\right	*
!	!	!	!	!	!	!	!	!	!LO:TX:b:t=P:problem=diminuendolike accent	!	!LO:TX:b:t=P:problem=diminuendolike accent	!	!LO:TX:b:t=P:problem=diminuendolike accent	!	!	!	!	!	!	!	!	!	!	!	!	!	!	!	!	!	!	!	!
4Ra/	2RaTT/	.	16Ree\LL	.	2r	.	8F#\L	.	16f#^<\LL	.	16ff#^<\LL	.	16fff#^<\LL	.	2f#/	2F#\	.	2F#^<\	.	2f#/	2f#^\	.	2f#/	2f#^\	.	2ff#\	.	2ff#^<\	.	2ff#^<\	.	2ff#^<\	.
.	.	.	16Ree\	.	.	.	.	.	16f#\	.	16ff#\	.	16fff#\	.	.	.	.	.	.	.	.	.	.	.	.	.	.	.	.	.	.	.	.
.	.	.	16Ree\	.	.	.	8F#\	.	16f#\	.	16ff#\	.	16fff#\	.	.	.	.	.	.	.	.	.	.	.	.	.	.	.	.	.	.	.	.
.	.	.	16Ree\	.	.	.	.	.	16f#\	.	16ff#\	.	16fff#\	.	.	.	.	.	.	.	.	.	.	.	.	.	.	.	.	.	.	.	.
4r	.	.	16Ree\	.	.	.	8F#\	.	16f#\	.	16ff#\	.	16fff#\	.	.	.	.	.	.	.	.	.	.	.	.	.	.	.	.	.	.	.	.
.	.	.	16Ree\	.	.	.	.	.	16f#\	.	16ff#\	.	16fff#\	.	.	.	.	.	.	.	.	.	.	.	.	.	.	.	.	.	.	.	.
.	.	.	16Ree\	.	.	.	8F#\J	.	16f#\	.	16ff#\	.	16fff#\	.	.	.	.	.	.	.	.	.	.	.	.	.	.	.	.	.	.	.	.
.	.	.	16Ree\JJ	.	.	.	.	.	16f#\JJ	.	16ff#\JJ	.	16fff#\JJ	.	.	.	.	.	.	.	.	.	.	.	.	.	.	.	.	.	.	.	.
=34	=34	=34	=34	=34	=34	=34	=34	=34	=34	=34	=34	=34	=34	=34	=34	=34	=34	=34	=34	=34	=34	=34	=34	=34	=34	=34	=34	=34	=34	=34	=34	=34	=34
*	*	*	*	*	*	*	*	*	*	*	*	*	*	*	*	*	*	*	*	*	*	*	*	*	*	*^	*	*	*	*	*	*	*
!	!	!	!	!	!LO:SIC:s=2ET/	!	!	!	!LO:TX:b:t=P:problem=diminuendolike accent	!	!	!	!LO:TX:b:t=P:problem=diminuendolike accent	!	!	!	!	!	!	!	!	!	!	!	!	!	!	!	!	!	!	!	!	!
4Ra/	2RaTTT/	.	16Ree\LL	.	2Rett</	.	8FF#/L	.	16cc#^<LL 16f#\	.	16eeLL 16f#\	.	16aa#X^\LL	.	2a#X 2c#/	2FF#/	.	2F# 2FF#^/	.	2f#/	2c#\	.	2f#/	2e\	.	2ee/	2cc#\	.	2aa# 2cc#\	.	2aa#X\	.	2a#X\	.
.	.	.	16Ree\	.	.	.	.	.	16cc# 16f#\	.	16ee 16f#\	.	16aa#\	.	.	.	.	.	.	.	.	.	.	.	.	.	.	.	.	.	.	.	.	.
.	.	.	16Ree\	.	.	.	8FF#/	.	16cc# 16f#\	.	16ee 16f#\	.	16aa#\	.	.	.	.	.	.	.	.	.	.	.	.	.	.	.	.	.	.	.	.	.
.	.	.	16Ree\	.	.	.	.	.	16cc# 16f#\	.	16ee 16f#\	.	16aa#\	.	.	.	.	.	.	.	.	.	.	.	.	.	.	.	.	.	.	.	.	.
4Ra/	.	.	16Ree\	.	.	.	8FF#/	.	16cc# 16f#\	.	16ee 16f#\	.	16aa#\	.	.	.	.	.	.	.	.	.	.	.	.	.	.	.	.	.	.	.	.	.
.	.	.	16Ree\	.	.	.	.	.	16cc# 16f#\	.	16ee 16f#\	.	16aa#\	.	.	.	.	.	.	.	.	.	.	.	.	.	.	.	.	.	.	.	.	.
.	.	.	16Ree\	.	.	.	8FF#/J	.	16cc# 16f#\	.	16ee 16f#\	.	16aa#\	.	.	.	.	.	.	.	.	.	.	.	.	.	.	.	.	.	.	.	.	.
.	.	.	16Ree\JJ	.	.	.	.	.	16cc#JJ 16f#\	.	16eeJJ 16f#\	.	16aa#\JJ	.	.	.	.	.	.	.	.	.	.	.	.	.	.	.	.	.	.	.	.	.
*	*	*	*	*	*	*	*Xtremolo	*	*	*	*	*	*	*	*	*	*	*	*	*	*	*	*	*	*	*	*	*	*	*	*	*	*	*
*	*	*	*	*	*	*	*	*	*	*	*	*	*	*	*	*	*	*	*	*	*	*	*	*	*	*v	*v	*	*	*	*	*	*	*
=35	=35	=35	=35	=35	=35	=35	=35	=35	=35	=35	=35	=35	=35	=35	=35	=35	=35	=35	=35	=35	=35	=35	=35	=35	=35	=35	=35	=35	=35	=35	=35	=35	=35
*	*	*	*	*	*	*	*	*	*	*	*	*	*	*	*	*	*	*	*	*	*	*	*tremolo	*tremolo	*	*	*	*	*	*	*	*	*
!	!	!	!	!	!LO:SIC:s=8BB\	!	!	!	!	!	!	!	!	!	!	!	!	!	!	!	!	!	!	!LO:TX:a:t=P:problem=pomazany takt, zapis prawdopodobny	!	!	!	!	!	!	!	!	!
4Ra/	4Ra/	.	8Ree\L	.	8Re\	.	8BB/L	.	16bLL 16f#\	.	16dd#LL 16f#\	.	16bb\LL	.	8bL 8d#X/	8BB/	.	8BL 8BB\	.	8f#/L	8B\L	.	8f#/L	8f#\L	.	8dd#L 8b\	.	8bbL 8dd#\	.	8bb\L	.	8b\L	.
.	.	.	.	.	.	.	.	.	16b 16f#\	.	16dd# 16f#\	.	16bb\	.	.	.	.	.	.	.	.	.	.	.	.	.	.	.	.	.	.	.	.
.	.	.	8Ree\	.	8r	.	8F#/J	.	16cc# 16f#\	.	16cc# 16f#\	.	16aa#\	.	8a#X 8c#/	8r	.	8F#\	.	8f#/	8f#\	.	8f#/	8f#\	.	8cc# 8a#\	.	8aa# 8cc#\	.	8aa#\	.	8cc#\J	.
.	.	.	.	.	.	.	.	.	16cc# 16f#\	.	16cc# 16f#\	.	16aa#\	.	.	.	.	.	.	.	.	.	.	.	.	.	.	.	.	.	.	.	.
4Ra/	4r	.	8Ree\	.	4r	.	8B\L	.	16b 16f#\	.	16dd# 16f#\	.	16bb\	.	8b 8d#/	4r	.	8B 8BB\	.	8f#/	8B\	.	8f#/	8f#\	.	8dd# 8b\	.	8bb 8dd#\	.	8bb\	.	8dd#\L	.
.	.	.	.	.	.	.	.	.	16b 16f#\	.	16dd# 16f#\	.	16bb\	.	.	.	.	.	.	.	.	.	.	.	.	.	.	.	.	.	.	.	.
.	.	.	8Ree\J	.	.	.	8F#\J	.	16cc# 16f#\	.	16cc# 16f#\	.	16aa#\	.	8a#J 8c#/	.	.	8F#\J	.	8f#/J	8f#\J	.	8f#/J	8f#\J	.	8cc#J 8a#\	.	8aa#J 8cc#\	.	8aa#\J	.	8cc#\J	.
.	.	.	.	.	.	.	.	.	16cc#JJ 16f#\	.	16cc#JJ 16f#\	.	16aa#\JJ	.	.	.	.	.	.	.	.	.	.	.	.	.	.	.	.	.	.	.	.
=36	=36	=36	=36	=36	=36	=36	=36	=36	=36	=36	=36	=36	=36	=36	=36	=36	=36	=36	=36	=36	=36	=36	=36	=36	=36	=36	=36	=36	=36	=36	=36	=36	=36
*	*rep	*	*rep	*	*rep	*	*	*	*rep	*	*rep	*	*rep	*	*rep	*	*	*rep	*	*rep	*rep	*	*rep	*rep	*	*rep	*	*rep	*	*rep	*	*	*
!	!	!	!	!	!LO:SIC:s=8BB\	!	!	!	!	!	!	!	!	!	!	!	!	!	!	!	!	!	!	!	!	!	!	!	!	!	!	!	!
4r	4Ra/	.	8Ree\L	.	8Re\	.	8B\L	.	16bLL 16f#\	.	16dd#LL 16f#\	.	16bb\LL	.	8bL 8d#X/	2r	.	8BL 8BB\	.	8f#/L	8B\L	.	8f#/L	8f#\L	.	8dd#L 8b\	.	8bbL 8dd#\	.	8bb\L	.	8dd#\L	.
.	.	.	.	.	.	.	.	.	16b 16f#\	.	16dd# 16f#\	.	16bb\	.	.	.	.	.	.	.	.	.	.	.	.	.	.	.	.	.	.	.	.
.	.	.	8Ree\	.	8r	.	8F#\	.	16cc# 16f#\	.	16cc# 16f#\	.	16aa#\	.	8a#X 8c#/	.	.	8F#\	.	8f#/	8f#\	.	8f#/	8f#\	.	8cc# 8a#\	.	8aa# 8cc#\	.	8aa#\	.	8cc#\	.
.	.	.	.	.	.	.	.	.	16cc# 16f#\	.	16cc# 16f#\	.	16aa#\	.	.	.	.	.	.	.	.	.	.	.	.	.	.	.	.	.	.	.	.
4Ra/	4r	.	8Ree\	.	4r	.	8B\	.	16b 16f#\	.	16dd# 16f#\	.	16bb\	.	8b 8d#/	.	.	8B 8BB\	.	8f#/	8B\	.	8f#/	8f#\	.	8dd# 8b\	.	8bb 8dd#\	.	8bb\	.	8dd#\	.
.	.	.	.	.	.	.	.	.	16b 16f#\	.	16dd# 16f#\	.	16bb\	.	.	.	.	.	.	.	.	.	.	.	.	.	.	.	.	.	.	.	.
.	.	.	8Ree\J	.	.	.	8F#\J	.	16cc# 16f#\	.	16cc# 16f#\	.	16aa#\	.	8a#J 8c#/	.	.	8F#\J	.	8f#/J	8f#\J	.	8f#/J	8f#\J	.	8cc#J 8a#\	.	8aa#J 8cc#\	.	8aa#\J	.	8cc#\J	.
.	.	.	.	.	.	.	.	.	16cc#JJ 16f#\	.	16cc#JJ 16f#\	.	16aa#\JJ	.	.	.	.	.	.	.	.	.	.	.	.	.	.	.	.	.	.	.	.
*	*Xrep	*	*Xrep	*	*Xrep	*	*	*	*Xrep	*	*Xrep	*	*Xrep	*	*Xrep	*	*	*Xrep	*	*Xrep	*Xrep	*	*Xrep	*Xrep	*	*Xrep	*	*Xrep	*	*Xrep	*	*	*
=37	=37	=37	=37	=37	=37	=37	=37	=37	=37	=37	=37	=37	=37	=37	=37	=37	=37	=37	=37	=37	=37	=37	=37	=37	=37	=37	=37	=37	=37	=37	=37	=37	=37
*rep	*rep	*	*rep	*	*rep	*	*rep	*	*rep	*	*rep	*	*rep	*	*rep	*	*	*rep	*	*rep	*rep	*	*rep	*rep	*	*rep	*	*rep	*	*rep	*	*rep	*
!	!	!	!	!	!LO:SIC:s=8BB\	!	!	!	!	!	!	!	!	!	!	!	!	!	!	!	!	!	!	!	!	!	!	!	!	!	!	!	!
4r	4Ra/	.	8Ree\L	.	8Re\	.	8B\L	.	16bLL 16f#\	.	16dd#LL 16f#\	.	16bb\LL	.	8bL 8d#X/	2r	.	8BL 8BB\	.	8f#/L	8B\L	.	8f#/L	8f#\L	.	8dd#L 8b\	.	8bbL 8dd#\	.	8bb\L	.	8dd#\L	.
.	.	.	.	.	.	.	.	.	16b 16f#\	.	16dd# 16f#\	.	16bb\	.	.	.	.	.	.	.	.	.	.	.	.	.	.	.	.	.	.	.	.
.	.	.	8Ree\	.	8r	.	8F#\	.	16cc# 16f#\	.	16cc# 16f#\	.	16aa#\	.	8a#X 8c#/	.	.	8F#\	.	8f#/	8f#\	.	8f#/	8f#\	.	8cc# 8a#\	.	8aa# 8cc#\	.	8aa#\	.	8cc#\	.
.	.	.	.	.	.	.	.	.	16cc# 16f#\	.	16cc# 16f#\	.	16aa#\	.	.	.	.	.	.	.	.	.	.	.	.	.	.	.	.	.	.	.	.
4Ra/	4r	.	8Ree\	.	4r	.	8B\	.	16b 16f#\	.	16dd# 16f#\	.	16bb\	.	8b 8d#/	.	.	8B 8BB\	.	8f#/	8B\	.	8f#/	8f#\	.	8dd# 8b\	.	8bb 8dd#\	.	8bb\	.	8dd#\	.
.	.	.	.	.	.	.	.	.	16b 16f#\	.	16dd# 16f#\	.	16bb\	.	.	.	.	.	.	.	.	.	.	.	.	.	.	.	.	.	.	.	.
.	.	.	8Ree\J	.	.	.	8F#\J	.	16cc# 16f#\	.	16cc# 16f#\	.	16aa#\	.	8a#J 8c#/	.	.	8F#\J	.	8f#/J	8f#\J	.	8f#/J	8f#\J	.	8cc#J 8a#\	.	8aa#J 8cc#\	.	8aa#\J	.	8cc#\J	.
.	.	.	.	.	.	.	.	.	16cc#JJ 16f#\	.	16cc#JJ 16f#\	.	16aa#\JJ	.	.	.	.	.	.	.	.	.	.	.	.	.	.	.	.	.	.	.	.
*Xrep	*Xrep	*	*Xrep	*	*Xrep	*	*Xrep	*	*Xrep	*	*Xrep	*	*Xrep	*	*Xrep	*	*	*Xrep	*	*Xrep	*Xrep	*	*Xrep	*Xrep	*	*Xrep	*	*Xrep	*	*Xrep	*	*Xrep	*
=38	=38	=38	=38	=38	=38	=38	=38	=38	=38	=38	=38	=38	=38	=38	=38	=38	=38	=38	=38	=38	=38	=38	=38	=38	=38	=38	=38	=38	=38	=38	=38	=38	=38
*rep	*rep	*	*rep	*	*rep	*	*rep	*	*rep	*	*	*	*rep	*	*rep	*	*	*rep	*	*rep	*rep	*	*tremolo	*Xtremolo	*	*rep	*	*rep	*	*rep	*	*rep	*
!	!	!	!	!	!LO:SIC:s=8BB\	!	!	!	!	!	!	!	!	!	!	!	!	!	!	!	!	!	!	!	!	!	!	!	!	!	!	!	!
4r	4Ra/	.	8Ree\L	.	8Re\	.	8B\L	.	16bLL 16f#\	.	16dd#LL 16f#/	.	16bb\LL	.	8bL 8d#X/	2r	.	8BL 8BB\	.	8f#/L	8B\L	.	8f#/L	8eL\	.	8dd#L 8b\	.	8bbL 8dd#\	.	8bb\L	.	8dd#\L	.
.	.	.	.	.	.	.	.	.	16b 16f#\	.	16dd# 16f#/	.	16bb\	.	.	.	.	.	.	.	.	.	.	.	.	.	.	.	.	.	.	.	.
.	.	.	8Ree\	.	8r	.	8F#\	.	16cc# 16f#\	.	16cc# 16f#/	.	16aa#\	.	8a#X 8c#/	.	.	8F#\	.	8f#/	8f#\	.	8f#/	8e\	.	8cc# 8a#\	.	8aa# 8cc#\	.	8aa#\	.	8cc#\	.
.	.	.	.	.	.	.	.	.	16cc# 16f#\	.	16cc# 16f#/	.	16aa#\	.	.	.	.	.	.	.	.	.	.	.	.	.	.	.	.	.	.	.	.
4Ra/	4r	.	8Ree\	.	4r	.	8B\	.	16b 16f#\	.	16dd# 16f#/	.	16bb\	.	8b 8d#/	.	.	8B 8BB\	.	8f#/	8B\	.	8f#/	8e\	.	8dd# 8b\	.	8bb 8dd#\	.	8bb\	.	8dd#\	.
.	.	.	.	.	.	.	.	.	16b 16f#\	.	16dd# 16f#/	.	16bb\	.	.	.	.	.	.	.	.	.	.	.	.	.	.	.	.	.	.	.	.
.	.	.	8Ree\J	.	.	.	8F#\J	.	16cc# 16f#\	.	16ee 16f#/	.	16aa#\	.	8a#J 8c#/	.	.	8F#\J	.	8f#/J	8f#\J	.	8f#/J	8d\J	.	8cc#J 8a#\	.	8aa#J 8cc#\	.	8aa#\J	.	8cc#\J	.
!LO:TX:t=P:problem=podwójna kreska taktowa	!LO:TX:t=P:problem=podwójna kreska taktowa	!	!LO:TX:t=P:problem=podwójna kreska taktowa	!	!	!	!	!	!	!	!	!	!	!	!	!	!	!	!	!	!	!	!	!	!	!	!	!	!	!	!	!	!
.	.	.	.	.	.	.	.	.	16cc#JJ 16f#\	.	16eeJJ 16f#/	.	16aa#\JJ	.	.	.	.	.	.	.	.	.	.	.	.	.	.	.	.	.	.	.	.
*Xrep	*Xrep	*	*Xrep	*	*Xrep	*	*Xrep	*	*Xrep	*	*	*	*Xrep	*	*	*	*	*	*	*	*	*	*Xtremolo	*	*	*	*	*	*	*	*	*X8ba	*
*	*	*	*Xtremolo	*	*	*	*	*	*Xtremolo	*	*Xtremolo	*	*Xtremolo	*	*Xrep	*	*	*Xrep	*	*Xrep	*Xrep	*	*	*	*	*Xrep	*	*Xrep	*	*Xrep	*	*Xrep	*
*	*	*	*	*	*	*	*	*	*	*	*	*	*	*	*	*	*	*	*	*v	*v	*	*	*	*	*	*	*	*	*	*	*	*
!!LO:PB:g=original
=39	=39	=39	=39	=39	=39	=39	=39	=39	=39	=39	=39	=39	=39	=39	=39	=39	=39	=39	=39	=39	=39	=39	=39	=39	=39	=39	=39	=39	=39	=39	=39	=39
!!!OMD: piú mosſo
*	*	*	*	*	*	*	*	*	*	*	*	*	*	*	*	*	*	*	*	*	*	*	*	*	*^	*	*	*	*	*	*	*
!	!	!	!LO:TX:a:t=piu mosso	!	!LO:SIC:s=2BBT\	!	!	!	!	!	!	!	!	!	!	!	!	!LO:TX:t=P:problem=fagotti, tromboni i trombe zamienione miejscami	!	!	!	!	!	!	!	!	!	!	!	!LO:TX:a:t=col I° //	!	!	!
4Ra/	2RaT/	.	4Ree\	.	2Rett\	.	4B\	.	4b\	.	4dd# 4f#/	.	4bb\	.	2b 2d#X/	2BB/	.	4F# 4BB\	.	[2f# [2B/	.	[2f#/	[2d#X\	.	[2dd#/	[2b\	.	[2bb [>2b\	.	4b\yy	.	4b\	.
*	*	*	*tremolo	*	*	*	*	*	*tremolo	*	*tremolo	*	*tremolo	*	*	*	*	*	*	*	*	*	*	*	*	*	*	*	*	*	*	*	*
!	!	!	!	!	!	!	!	!	!	!	!LO:TX:a:t=Col 1° //	!	!	!	!	!	!	!	!	!	!	!	!	!	!	!	!	!	!	!	!	!	!
4r	.	.	16Ree\LL	.	.	.	4B\	.	16b\LL	.	16bb\LLyy	.	16bb\LL	.	.	.	.	4B\	.	.	.	.	.	.	.	.	.	.	.	4bb\yy	.	4bb\	.
.	.	.	16Ree\	.	.	.	.	.	16b\	.	16bb\yy	.	16bb\	.	.	.	.	.	.	.	.	.	.	.	.	.	.	.	.	.	.	.	.
.	.	.	16Ree\	.	.	.	.	.	16b\	.	16bb\yy	.	16bb\	.	.	.	.	.	.	.	.	.	.	.	.	.	.	.	.	.	.	.	.
.	.	.	16Ree\JJ	.	.	.	.	.	16b\JJ	.	16bb\JJyy	.	16bb\JJ	.	.	.	.	.	.	.	.	.	.	.	.	.	.	.	.	.	.	.	.
=40	=40	=40	=40	=40	=40	=40	=40	=40	=40	=40	=40	=40	=40	=40	=40	=40	=40	=40	=40	=40	=40	=40	=40	=40	=40	=40	=40	=40	=40	=40	=40	=40	=40
*rep	*rep	*	*	*	*rep	*	*	*	*	*	*	*	*	*	*rep	*	*	*	*	*	*	*	*	*	*	*	*	*	*	*	*	*	*
!	!	!	!	!	!LO:SIC:s=2BB\	!	!	!	!	!	!	!	!	!	!	!	!	!	!	!	!	!	!	!	!	!	!	!	!	!	!	!	!
4Ra/	2RaT/	.	16Ree\LL	.	2Rettt\	.	4F#\	.	16f#\LL	.	16ff#\LLyy	.	16ff#\LL	.	2b 2d#X/	2BB/	.	4F#\	.	2f#_ 2B/_	.	2f#/_	2d#\_	.	2dd#/_	2b\_	.	2bb_ 2b\_>	.	4ff#\yy	.	4ff#\	.
.	.	.	16Ree\	.	.	.	.	.	16f#\	.	16ff#\yy	.	16ff#\	.	.	.	.	.	.	.	.	.	.	.	.	.	.	.	.	.	.	.	.
.	.	.	16Ree\	.	.	.	.	.	16f#\	.	16ff#\yy	.	16ff#\	.	.	.	.	.	.	.	.	.	.	.	.	.	.	.	.	.	.	.	.
.	.	.	16Ree\	.	.	.	.	.	16f#\JJ	.	16ff#\JJyy	.	16ff#\JJ	.	.	.	.	.	.	.	.	.	.	.	.	.	.	.	.	.	.	.	.
4r	.	.	16Ree\	.	.	.	4D#\	.	16d#\LL	.	16dd#\LLyy	.	16dd#\LL	.	.	.	.	4D#\	.	.	.	.	.	.	.	.	.	.	.	4dd#\yy	.	4dd#\	.
.	.	.	16Ree\	.	.	.	.	.	16d#\	.	16dd#\yy	.	16dd#\	.	.	.	.	.	.	.	.	.	.	.	.	.	.	.	.	.	.	.	.
.	.	.	16Ree\	.	.	.	.	.	16d#\	.	16dd#\yy	.	16dd#\	.	.	.	.	.	.	.	.	.	.	.	.	.	.	.	.	.	.	.	.
.	.	.	16Ree\JJ	.	.	.	.	.	16d#\JJ	.	16dd#\JJyy	.	16dd#\JJ	.	.	.	.	.	.	.	.	.	.	.	.	.	.	.	.	.	.	.	.
*Xrep	*Xrep	*	*	*	*Xrep	*	*	*	*	*	*	*	*	*	*Xrep	*	*	*	*	*	*	*	*	*	*	*	*	*	*	*	*	*	*
=41	=41	=41	=41	=41	=41	=41	=41	=41	=41	=41	=41	=41	=41	=41	=41	=41	=41	=41	=41	=41	=41	=41	=41	=41	=41	=41	=41	=41	=41	=41	=41	=41	=41
*rep	*rep	*	*rep	*	*rep	*	*	*	*	*	*	*	*	*	*rep	*	*	*	*	*rep	*	*rep	*rep	*	*	*	*	*	*	*	*	*	*
!	!	!	!	!	!LO:SIC:s=2BB\	!	!	!	!	!	!	!	!	!	!	!	!	!	!	!	!	!	!	!	!	!	!	!	!	!	!	!	!
4Ra/	2RaT/	.	16Ree\LL	.	2Rettt\	.	4BB/	.	16B/LL	.	16b\LLyy	.	16b\LL	.	2b 2d#X/	2BB/	.	4BB\	.	2f#_ 2B/_	.	2f#/_	2d#\_	.	2dd#/_	2b\_	.	2bb_ 2b\_>	.	4b\yy	.	4b\	.
.	.	.	16Ree\	.	.	.	.	.	16B/	.	16b\yy	.	16b\	.	.	.	.	.	.	.	.	.	.	.	.	.	.	.	.	.	.	.	.
.	.	.	16Ree\	.	.	.	.	.	16B/	.	16b\yy	.	16b\	.	.	.	.	.	.	.	.	.	.	.	.	.	.	.	.	.	.	.	.
.	.	.	16Ree\	.	.	.	.	.	16B/JJ	.	16b\JJyy	.	16b\JJ	.	.	.	.	.	.	.	.	.	.	.	.	.	.	.	.	.	.	.	.
4r	.	.	16Ree\	.	.	.	4d#\	.	16dd#\LL	.	16ddd#\LLyy	.	16ddd#\LL	.	.	.	.	4d#\	.	.	.	.	.	.	.	.	.	.	.	4ddd#\yy	.	4ddd#\	.
.	.	.	16Ree\	.	.	.	.	.	16dd#\	.	16ddd#\yy	.	16ddd#\	.	.	.	.	.	.	.	.	.	.	.	.	.	.	.	.	.	.	.	.
.	.	.	16Ree\	.	.	.	.	.	16dd#\	.	16ddd#\yy	.	16ddd#\	.	.	.	.	.	.	.	.	.	.	.	.	.	.	.	.	.	.	.	.
.	.	.	16Ree\JJ	.	.	.	.	.	16dd#\JJ	.	16ddd#\JJyy	.	16ddd#\JJ	.	.	.	.	.	.	.	.	.	.	.	.	.	.	.	.	.	.	.	.
*Xrep	*Xrep	*	*Xrep	*	*Xrep	*	*	*	*	*	*	*	*	*	*Xrep	*	*	*	*	*Xrep	*	*Xrep	*Xrep	*	*	*	*	*	*	*	*	*	*
=42	=42	=42	=42	=42	=42	=42	=42	=42	=42	=42	=42	=42	=42	=42	=42	=42	=42	=42	=42	=42	=42	=42	=42	=42	=42	=42	=42	=42	=42	=42	=42	=42	=42
*rep	*rep	*	*rep	*	*rep	*	*	*	*	*	*	*	*	*	*rep	*	*	*	*	*rep	*	*rep	*rep	*	*	*	*	*	*	*	*	*	*
!	!	!	!	!	!LO:SIC:s=2BB\	!	!	!	!	!	!	!	!	!	!	!	!	!	!	!	!	!	!	!	!	!	!	!	!	!	!	!	!
4Ra/	2RaT/	.	16Ree\LL	.	2Rettt\	.	4B\	.	16b\LL	.	16bb\LLyy	.	16bb\LL	.	2b 2d#X/	2BB/	.	4B\	.	2f#_ 2B/_	.	2f#/_	2d#\_	.	2dd#/_	2b\_	.	2bb_ 2b\_>	.	4bb\yy	.	4bb\	.
.	.	.	16Ree\	.	.	.	.	.	16b\	.	16bb\yy	.	16bb\	.	.	.	.	.	.	.	.	.	.	.	.	.	.	.	.	.	.	.	.
.	.	.	16Ree\	.	.	.	.	.	16b\	.	16bb\yy	.	16bb\	.	.	.	.	.	.	.	.	.	.	.	.	.	.	.	.	.	.	.	.
.	.	.	16Ree\	.	.	.	.	.	16b\JJ	.	16bb\JJyy	.	16bb\JJ	.	.	.	.	.	.	.	.	.	.	.	.	.	.	.	.	.	.	.	.
4r	.	.	16Ree\	.	.	.	4F#\	.	16f#\LL	.	16ff#\LLyy	.	16ff#\LL	.	.	.	.	4F#\	.	.	.	.	.	.	.	.	.	.	.	4ff#\yy	.	4ff#\	.
.	.	.	16Ree\	.	.	.	.	.	16f#\	.	16ff#\yy	.	16ff#\	.	.	.	.	.	.	.	.	.	.	.	.	.	.	.	.	.	.	.	.
.	.	.	16Ree\	.	.	.	.	.	16f#\	.	16ff#\yy	.	16ff#\	.	.	.	.	.	.	.	.	.	.	.	.	.	.	.	.	.	.	.	.
.	.	.	16Ree\JJ	.	.	.	.	.	16f#\JJ	.	16ff#\JJyy	.	16ff#\JJ	.	.	.	.	.	.	.	.	.	.	.	.	.	.	.	.	.	.	.	.
*Xrep	*Xrep	*	*Xrep	*	*Xrep	*	*	*	*	*	*	*	*	*	*Xrep	*	*	*	*	*Xrep	*	*Xrep	*Xrep	*	*	*	*	*	*	*	*	*	*
=43	=43	=43	=43	=43	=43	=43	=43	=43	=43	=43	=43	=43	=43	=43	=43	=43	=43	=43	=43	=43	=43	=43	=43	=43	=43	=43	=43	=43	=43	=43	=43	=43	=43
*rep	*rep	*	*rep	*	*rep	*	*	*	*	*	*	*	*	*	*rep	*	*	*	*	*rep	*	*rep	*rep	*	*	*	*	*	*	*	*	*	*
!	!	!	!	!	!LO:SIC:s=2BB\	!	!	!	!	!	!	!	!	!	!	!	!	!	!	!	!	!	!	!	!	!	!	!	!	!	!	!	!
4Ra/	2RaT/	.	16Ree\LL	.	2Rettt\	.	4D#\	.	16d#\LL	.	16dd#\LLyy	.	16dd#\LL	.	2b 2d#X/	2BB/	.	4D#\	.	2f#_ 2B/_	.	2f#/_	2d#\_	.	2dd#/_	2b\_	.	2bb_ 2b\_>	.	4dd#\yy	.	4dd#\	.
.	.	.	16Ree\	.	.	.	.	.	16d#\	.	16dd#\yy	.	16dd#\	.	.	.	.	.	.	.	.	.	.	.	.	.	.	.	.	.	.	.	.
.	.	.	16Ree\	.	.	.	.	.	16d#\	.	16dd#\yy	.	16dd#\	.	.	.	.	.	.	.	.	.	.	.	.	.	.	.	.	.	.	.	.
.	.	.	16Ree\	.	.	.	.	.	16d#\JJ	.	16dd#\JJyy	.	16dd#\JJ	.	.	.	.	.	.	.	.	.	.	.	.	.	.	.	.	.	.	.	.
4r	.	.	16Ree\	.	.	.	4f#\	.	16ff#\LL	.	16fff#\LLyy	.	16fff#\LL	.	.	.	.	4f#\	.	.	.	.	.	.	.	.	.	.	.	4fff#\yy	.	4fff#\	.
.	.	.	16Ree\	.	.	.	.	.	16ff#\	.	16fff#\yy	.	16fff#\	.	.	.	.	.	.	.	.	.	.	.	.	.	.	.	.	.	.	.	.
.	.	.	16Ree\	.	.	.	.	.	16ff#\	.	16fff#\yy	.	16fff#\	.	.	.	.	.	.	.	.	.	.	.	.	.	.	.	.	.	.	.	.
.	.	.	16Ree\JJ	.	.	.	.	.	16ff#\JJ	.	16fff#\JJyy	.	16fff#\JJ	.	.	.	.	.	.	.	.	.	.	.	.	.	.	.	.	.	.	.	.
*Xrep	*Xrep	*	*Xrep	*	*Xrep	*	*	*	*	*	*	*	*	*	*Xrep	*	*	*	*	*Xrep	*	*Xrep	*Xrep	*	*	*	*	*	*	*	*	*	*
=44	=44	=44	=44	=44	=44	=44	=44	=44	=44	=44	=44	=44	=44	=44	=44	=44	=44	=44	=44	=44	=44	=44	=44	=44	=44	=44	=44	=44	=44	=44	=44	=44	=44
*rep	*rep	*	*rep	*	*rep	*	*	*	*	*	*	*	*	*	*rep	*rep	*	*	*	*rep	*	*rep	*rep	*	*	*	*	*	*	*	*	*	*
!	!	!	!	!	!LO:SIC:s=2BB\	!	!	!	!	!	!	!	!	!	!	!	!	!	!	!	!	!	!	!	!	!	!	!	!	!	!	!	!
4Ra/	2RaT/	.	16Ree\LL	.	2Rettt\	.	4d#\	.	16dd#\LL	.	16ddd#\LLyy	.	16ddd#\LL	.	2b 2d#X/	2BB/	.	4d#\	.	2f#_ 2B/_	.	2f#/_	2d#\_	.	2dd#/_	2b\_	.	2bb_ 2b\_>	.	4ddd#\yy	.	4ddd#\	.
.	.	.	16Ree\	.	.	.	.	.	16dd#\	.	16ddd#\yy	.	16ddd#\	.	.	.	.	.	.	.	.	.	.	.	.	.	.	.	.	.	.	.	.
.	.	.	16Ree\	.	.	.	.	.	16dd#\	.	16ddd#\yy	.	16ddd#\	.	.	.	.	.	.	.	.	.	.	.	.	.	.	.	.	.	.	.	.
.	.	.	16Ree\	.	.	.	.	.	16dd#\JJ	.	16ddd#\JJyy	.	16ddd#\JJ	.	.	.	.	.	.	.	.	.	.	.	.	.	.	.	.	.	.	.	.
4r	.	.	16Ree\	.	.	.	4B\	.	16b\LL	.	16bb\LLyy	.	16bb\LL	.	.	.	.	4B\	.	.	.	.	.	.	.	.	.	.	.	4bb\yy	.	4bb\	.
.	.	.	16Ree\	.	.	.	.	.	16b\	.	16bb\yy	.	16bb\	.	.	.	.	.	.	.	.	.	.	.	.	.	.	.	.	.	.	.	.
.	.	.	16Ree\	.	.	.	.	.	16b\	.	16bb\yy	.	16bb\	.	.	.	.	.	.	.	.	.	.	.	.	.	.	.	.	.	.	.	.
.	.	.	16Ree\JJ	.	.	.	.	.	16b\JJ	.	16bb\JJyy	.	16bb\JJ	.	.	.	.	.	.	.	.	.	.	.	.	.	.	.	.	.	.	.	.
*Xrep	*Xrep	*	*Xrep	*	*Xrep	*	*	*	*	*	*	*	*	*	*Xrep	*Xrep	*	*	*	*Xrep	*	*Xrep	*Xrep	*	*	*	*	*	*	*	*	*	*
=45	=45	=45	=45	=45	=45	=45	=45	=45	=45	=45	=45	=45	=45	=45	=45	=45	=45	=45	=45	=45	=45	=45	=45	=45	=45	=45	=45	=45	=45	=45	=45	=45	=45
*rep	*rep	*	*rep	*	*rep	*	*	*	*	*	*	*	*	*	*rep	*rep	*	*	*	*rep	*	*rep	*rep	*	*	*	*	*	*	*	*	*	*
!	!	!	!	!	!LO:SIC:s=2BB\	!	!	!	!	!	!	!	!	!	!	!	!	!	!	!	!	!	!	!	!	!	!	!	!	!	!	!	!
4Ra/	2RaT/	.	16Ree\LL	.	2Rettt\	.	4F#\	.	16f#\LL	.	16ff#\LL	.	16ff#\LL	.	2b 2d#X/	2BB/	.	4F#\	.	2f#_ 2B/_	.	2f#/_	2d#\_	.	2dd#/_	2b\_	.	2bb_ 2b\_>	.	4ff#\yy	.	4ff#\	.
.	.	.	16Ree\	.	.	.	.	.	16f#\	.	16ff#\	.	16ff#\	.	.	.	.	.	.	.	.	.	.	.	.	.	.	.	.	.	.	.	.
.	.	.	16Ree\	.	.	.	.	.	16f#\	.	16ff#\	.	16ff#\	.	.	.	.	.	.	.	.	.	.	.	.	.	.	.	.	.	.	.	.
.	.	.	16Ree\	.	.	.	.	.	16f#\JJ	.	16ff#\JJ	.	16ff#\JJ	.	.	.	.	.	.	.	.	.	.	.	.	.	.	.	.	.	.	.	.
*	*	*	*	*	*	*	*	*	*	*	*	*	*8va	*	*	*	*	*	*	*	*	*	*	*	*	*	*	*	*	*	*	*	*
4r	.	.	16Ree\	.	.	.	4B\	.	16b\LL	.	16bb\LL	.	16bbb\LL	.	.	.	.	4B\	.	.	.	.	.	.	.	.	.	.	.	4bb\yy	.	4bb\	.
.	.	.	16Ree\	.	.	.	.	.	16b\	.	16bb\	.	16bbb\	.	.	.	.	.	.	.	.	.	.	.	.	.	.	.	.	.	.	.	.
.	.	.	16Ree\	.	.	.	.	.	16b\	.	16bb\	.	16bbb\	.	.	.	.	.	.	.	.	.	.	.	.	.	.	.	.	.	.	.	.
.	.	.	16Ree\JJ	.	.	.	.	.	16b\JJ	.	16bb\JJ	.	16bbb\JJ	.	.	.	.	.	.	.	.	.	.	.	.	.	.	.	.	.	.	.	.
*Xrep	*Xrep	*	*Xrep	*	*Xrep	*	*	*	*	*	*	*	*	*	*Xrep	*Xrep	*	*	*	*Xrep	*	*Xrep	*Xrep	*	*	*	*	*	*	*	*	*	*
!LO:LB:g=original	!LO:LB:g=original	!	!LO:LB:g=original	!	!	!	!	!	!	!	!	!	!	!	!	!	!	!	!	!	!	!	!	!	!	!	!	!	!	!	!	!	!
=46	=46	=46	=46	=46	=46	=46	=46	=46	=46	=46	=46	=46	=46	=46	=46	=46	=46	=46	=46	=46	=46	=46	=46	=46	=46	=46	=46	=46	=46	=46	=46	=46	=46
*	*	*	*	*	*rep	*	*	*	*	*	*	*	*	*	*rep	*rep	*	*	*	*rep	*	*rep	*rep	*	*	*	*	*	*	*	*	*	*
!	!	!	!	!	!LO:SIC:s=2BB\	!	!	!	!	!	!	!	!	!	!	!	!	!	!	!	!	!	!	!	!	!	!	!	!	!	!	!	!
4Ra/	2RaT/	.	16Ree\LL	.	2Rettt\	.	4F#\	.	16f#\LL	.	16ff#\LL	.	16fff#LL 16ddd#\	.	2b 2d#X/	2BB/	.	4F#\	.	2f#] 2B/]	.	2f#/]	2d#\]	.	2dd#/]	2b\]	.	2bb] 2b\]	.	4ff#\yy	.	4ff#\	.
.	.	.	16Ree\	.	.	.	.	.	16f#\	.	16ff#\	.	16fff# 16ddd#\	.	.	.	.	.	.	.	.	.	.	.	.	.	.	.	.	.	.	.	.
.	.	.	16Ree\	.	.	.	.	.	16f#\	.	16ff#\	.	16fff# 16ddd#\	.	.	.	.	.	.	.	.	.	.	.	.	.	.	.	.	.	.	.	.
.	.	.	16Ree\	.	.	.	.	.	16f#\JJ	.	16ff#\JJ	.	16fff#JJ 16ddd#\	.	.	.	.	.	.	.	.	.	.	.	.	.	.	.	.	.	.	.	.
4r	.	.	16Ree\	.	.	.	4D#\	.	16d#\LL	.	16dd#\LL	.	16ddd#\LL	.	.	.	.	4D#\	.	.	.	.	.	.	.	.	.	.	.	4dd#\yy	.	4dd#\	.
.	.	.	16Ree\	.	.	.	.	.	16d#\	.	16dd#\	.	16ddd#\	.	.	.	.	.	.	.	.	.	.	.	.	.	.	.	.	.	.	.	.
.	.	.	16Ree\	.	.	.	.	.	16d#\	.	16dd#\	.	16ddd#\	.	.	.	.	.	.	.	.	.	.	.	.	.	.	.	.	.	.	.	.
.	.	.	16Ree\JJ	.	.	.	.	.	16d#\JJ	.	16dd#\JJ	.	16ddd#\JJ	.	.	.	.	.	.	.	.	.	.	.	.	.	.	.	.	.	.	.	.
*	*	*	*	*	*Xrep	*	*	*	*	*	*	*	*X8va	*	*	*	*	*	*	*	*	*	*	*	*	*	*	*	*	*	*	*	*
*	*	*	*Xtremolo	*	*	*	*	*	*Xtremolo	*	*Xtremolo	*	*Xtremolo	*	*Xrep	*Xrep	*	*	*	*Xrep	*	*Xrep	*Xrep	*	*	*	*	*	*	*	*	*	*
*	*	*	*	*	*	*	*	*	*	*	*	*	*	*	*	*	*	*	*	*	*	*v	*v	*	*	*	*	*	*	*	*	*	*
*	*	*	*	*	*	*	*	*	*	*	*	*	*	*	*	*	*	*	*	*	*	*	*	*v	*v	*	*	*	*	*	*	*
=47	=47	=47	=47	=47	=47	=47	=47	=47	=47	=47	=47	=47	=47	=47	=47	=47	=47	=47	=47	=47	=47	=47	=47	=47	=47	=47	=47	=47	=47	=47	=47
*	*	*	*	*	*	*	*	*	*	*	*	*	*	*	*	*	*	*	*	*	*	*^	*	*^	*	*	*	*	*	*	*
!	!	!	!	!	!	!	!	!	!	!	!	!	!LO:TX:a:t=loco	!	!	!	!	!	!	!	!	!	!	!	!	!	!	!	!	!	!	!	!
.	.	.	.	.	.	.	.	.	.	.	(8qb/	.	.	.	.	.	.	.	.	.	.	.	.	.	.	.	.	.	.	.	.	.	.
!	!	!	!	!	!LO:SIC:s=8BB\	!	!	!	!	!	!	!	!	!	!	!	!	!	!	!	!	!	!	!	!	!	!	!	!	!	!	!	!
4Ra/	4Ra/	.	4Ree\	.	8Re\	.	8BB/	.	8B/	.	8bb\L)	.	8bb\L	.	8b 8d#X/	8BB/	.	8BB/	.	8f# 8B/	.	8f#/	8d#X\	.	8dd#/	8b\	.	8bb 8b\	.	(y8bb\Lyy	.	(8bb\L	.
.	.	.	.	.	8r	.	8r	.	8r	.	(16aa#\L	.	(16aa#\L	.	8r	8r	.	8r	.	8r	.	8r	4.ryy	.	8r	4.ryy	.	8r	.	16aa#\Lyy	.	16aa#\L	.
.	.	.	.	.	.	.	.	.	.	.	16gg#\JJ	.	16gg#\JJ	.	.	.	.	.	.	.	.	.	.	.	.	.	.	.	.	16gg#\JJyy	.	16gg#\JJ	.
4r	4r	.	4r	.	4r	.	4r	.	4r	.	16ff#\LL	.	16ff#\LL	.	4r	4r	.	4r	.	4r	.	4r	.	.	4r	.	.	4r	.	16ff#\LLyy	.	16ff#\LL	.
.	.	.	.	.	.	.	.	.	.	.	16ee\	.	16ee\	.	.	.	.	.	.	.	.	.	.	.	.	.	.	.	.	16ee\yy	.	16ee\	.
.	.	.	.	.	.	.	.	.	.	.	16dd#\	.	16dd#\	.	.	.	.	.	.	.	.	.	.	.	.	.	.	.	.	16dd#\yy	.	16dd#\	.
.	.	.	.	.	.	.	.	.	.	.	16cc#\JJ)	.	16cc#\JJ)	.	.	.	.	.	.	.	.	.	.	.	.	.	.	.	.	16cc#\JJ)yy	.	16cc#\JJ)	.
*	*	*	*	*	*	*	*	*	*	*	*	*	*	*	*	*	*	*	*	*	*	*v	*v	*	*	*	*	*	*	*	*	*	*
*	*	*	*	*	*	*	*	*	*	*	*	*	*	*	*	*	*	*	*	*	*	*	*	*v	*v	*	*	*	*	*	*	*
=48	=48	=48	=48	=48	=48	=48	=48	=48	=48	=48	=48	=48	=48	=48	=48	=48	=48	=48	=48	=48	=48	=48	=48	=48	=48	=48	=48	=48	=48	=48	=48
2r	2r	.	2r	.	2r	.	(8B\L	.	(8b\L	.	(8b/L	.	(8b/L	.	2r	2r	.	(8B\L	.	2r	.	2r	.	(8b/L	.	(8bb\L	.	(y16b\LLyy	.	(16b\LL	.
.	.	.	.	.	.	.	.	.	.	.	.	.	.	.	.	.	.	.	.	.	.	.	.	.	.	.	.	16bb\yy	.	16bb\	.
.	.	.	.	.	.	.	16A#\L	.	16a#\L	.	16a#/L	.	16a#/L	.	.	.	.	16A#\L	.	.	.	.	.	16a#/L	.	16aa#\L	.	16aa#\yy	.	16aa#\	.
.	.	.	.	.	.	.	16G#\JJ	.	16g#\JJ	.	16g#/JJ	.	16g#/JJ	.	.	.	.	16G#\JJ	.	.	.	.	.	16g#/JJ	.	16gg#\JJ	.	16gg#\JJyy	.	16gg#\JJ	.
.	.	.	.	.	.	.	16F#\LL	.	16f#\LL	.	16f#/LL	.	16f#/LL	.	.	.	.	16F#\LL	.	.	.	.	.	16f#/LL	.	16ff#\LL	.	16ff#\LLyy	.	16ff#\LL	.
.	.	.	.	.	.	.	16E\	.	16e\	.	16e/	.	16e/	.	.	.	.	16E\	.	.	.	.	.	16e/	.	16ee\	.	16ee\yy	.	16ee\	.
.	.	.	.	.	.	.	16D#\	.	16d#\	.	16d#/	.	16d#/	.	.	.	.	16D#\	.	.	.	.	.	16d#/	.	16dd#\	.	16dd#\yy	.	16dd#\	.
.	.	.	.	.	.	.	16C#\JJ)	.	16c#\JJ)	.	16c#/JJ)	.	16c#/JJ)	.	.	.	.	16C#\JJ)	.	.	.	.	.	16c#/JJ	.	16cc#\JJ)	.	16cc#\JJ)yy	.	16cc#\JJ)	.
=49	=49	=49	=49	=49	=49	=49	=49	=49	=49	=49	=49	=49	=49	=49	=49	=49	=49	=49	=49	=49	=49	=49	=49	=49	=49	=49	=49	=49	=49	=49	=49
*	*	*	*	*	*	*	*	*	*	*	*	*	*	*	*	*	*	*	*	*^	*	*^	*	*	*	*	*	*	*	*	*
4r	4r	.	4r	.	4r	.	8BB/	.	8B/	.	8B/	.	8B/	.	4r	4r	.	8BB/	.	4r	4ryy	.	4r	4ryy	.	8B/)	.	8b\	.	8b\	.	8b\	.
.	.	.	.	.	.	.	8r	.	8r	.	8r	.	8r	.	.	.	.	8r	.	.	.	.	.	.	.	8r	.	8r	.	8r	.	8r	.
!	!	!	!	!	!LO:N:vis=1	!	!	!	!	!	!	!	!	!	!	!	!	!	!	!	!	!	!	!	!	!	!	!	!	!	!	!	!
4Ra/	8Ra/	.	8Ree\	.	4r	.	8F#\	.	8cc# 8f#\	.	8aa# 8cc#\	.	8fff#\	.	8a#X 8c#/	8F#\	.	8F# 8FF#/	.	8f#/	8f#\	.	8f#/	8f#\	.	8ff# 8a#\	.	8aa# 8cc#\	.	8aa#\	.	8fff#\	.
.	8r	.	8r	.	.	.	8r	.	8r	.	8r	.	8r	.	8r	8r	.	8r	.	8r	8ryy	.	8r	8ryy	.	8r	.	8r	.	8r	.	8r	.
=50	=50	=50	=50	=50	=50	=50	=50	=50	=50	=50	=50	=50	=50	=50	=50	=50	=50	=50	=50	=50	=50	=50	=50	=50	=50	=50	=50	=50	=50	=50	=50	=50	=50
!	!	!	!	!	!LO:SIC:s=4E/	!	!	!	!	!	!	!	!	!	!	!	!	!	!	!	!	!	!	!	!	!	!	!	!	!	!	!	!
4r	8Ra/	.	8Ree\	.	4Re/	.	8B\	.	8dd# 8f#\	.	8bb 8dd#\	.	8ddd#\	.	8b 8d#X/	8B\	.	8B 8BB\	.	8f# 8B/	4ryy	.	8f#/	8f#\	.	8dd# 8b\	.	8bb 8dd#\	.	8bb\	.	8ddd#\	.
.	8r	.	8r	.	.	.	8r	.	8r	.	8r	.	8r	.	8r	8r	.	8r	.	8r	.	.	8r	8ryy	.	8r	.	8r	.	8r	.	8r	.
4Ra/	8Ra/	.	8Ree\	.	4r	.	8F#\	.	8cc# 8f#\	.	8aa# 8cc#\	.	8fff#\	.	8a#X 8c#/	8F#\	.	8F# 8FF#/	.	8f#/	8f#\	.	8f#/	8f#\	.	8ff# 8a#\	.	8aa# 8cc#\	.	8aa#\	.	8fff#\	.
.	8r	.	8r	.	.	.	8r	.	8r	.	8r	.	8r	.	8r	8r	.	8r	.	8r	8ryy	.	8r	8ryy	.	8r	.	8r	.	8r	.	8r	.
!!LO:PB:g=original
=51	=51	=51	=51	=51	=51	=51	=51	=51	=51	=51	=51	=51	=51	=51	=51	=51	=51	=51	=51	=51	=51	=51	=51	=51	=51	=51	=51	=51	=51	=51	=51	=51	=51
*rep	*rep	*	*rep	*	*	*	*	*	*	*	*	*	*	*	*	*	*	*	*	*	*	*	*	*	*	*	*	*	*	*	*	*	*
!	!	!	!	!	!LO:SIC:s=8BB\	!	!	!	!	!	!	!	!	!	!	!	!	!	!	!	!	!	!	!	!	!	!	!	!	!	!	!	!
4r	8Ra/	.	8Ree\	.	8Re\	.	8B\	.	8dd# 8f#\	.	8bb 8dd#\	.	8ddd#\	.	8b 8d#X/	8B\	.	8B 8BB\	.	8f# 8B/	4ryy	.	8f#/	8f#\	.	8dd# 8b\	.	8bb 8dd#\	.	8bb\	.	8ddd#\	.
.	8r	.	8r	.	8r	.	8r	.	8r	.	8r	.	8r	.	8r	8r	.	8r	.	8r	.	.	8r	8ryy	.	8r	.	8r	.	8r	.	8r	.
4Ra/	8Ra/	.	8Ree\	.	4r	.	8F#\	.	8cc# 8f#\	.	8aa# 8cc#\	.	8fff#\	.	8a#X 8c#/	8F#\	.	8F# 8FF#\	.	8f#/	8f#\	.	8f#/	8f#\	.	8ff# 8a#\	.	8aa# 8cc#\	.	8aa#\	.	8fff#\	.
.	8r	.	8r	.	.	.	8r	.	8r	.	8r	.	8r	.	8r	8r	.	8r	.	8r	8ryy	.	8r	8ryy	.	8r	.	8r	.	8r	.	8r	.
*Xrep	*Xrep	*	*Xrep	*	*	*	*	*	*	*	*	*	*	*	*	*	*	*	*	*	*	*	*	*	*	*	*	*	*	*	*	*	*
=52	=52	=52	=52	=52	=52	=52	=52	=52	=52	=52	=52	=52	=52	=52	=52	=52	=52	=52	=52	=52	=52	=52	=52	=52	=52	=52	=52	=52	=52	=52	=52	=52	=52
*rep	*rep	*	*rep	*	*rep	*	*rep	*	*rep	*	*rep	*	*rep	*	*rep	*rep	*	*rep	*	*rep	*rep	*	*rep	*rep	*	*rep	*	*rep	*	*rep	*	*	*
!	!	!	!	!	!LO:SIC:s=8BB\	!	!	!	!	!	!	!	!	!	!	!	!	!	!	!	!	!	!	!	!	!	!	!	!	!	!	!	!
4r	8Ra/	.	8Ree\	.	8Re\	.	8B\	.	8dd# 8f#\	.	8bb 8dd#\	.	8ddd#\	.	8b 8d#X/	8B\	.	8B 8BB\	.	8f# 8B/	4ryy	.	8f#/	8f#\	.	8dd# 8b\	.	8bb 8dd#\	.	8bb\	.	8ddd#\	.
.	8r	.	8r	.	8r	.	8r	.	8r	.	8r	.	8r	.	8r	8r	.	8r	.	8r	.	.	8r	8ryy	.	8r	.	8r	.	8r	.	8r	.
4Ra/	8Ra/	.	8Ree\	.	4r	.	8F#\	.	8cc# 8f#\	.	8aa# 8cc#\	.	8fff#\	.	8a#X 8c#/	8F#\	.	8F# 8FF#\	.	8f#/	8f#\	.	8f#/	8f#\	.	8ff# 8a#\	.	8aa# 8cc#\	.	8aa#\	.	8fff#\	.
.	8r	.	8r	.	.	.	8r	.	8r	.	8r	.	8r	.	8r	8r	.	8r	.	8r	8ryy	.	8r	8ryy	.	8r	.	8r	.	8r	.	8r	.
*Xrep	*Xrep	*	*Xrep	*	*Xrep	*	*Xrep	*	*Xrep	*	*Xrep	*	*Xrep	*	*Xrep	*Xrep	*	*Xrep	*	*Xrep	*Xrep	*	*Xrep	*Xrep	*	*Xrep	*	*Xrep	*	*Xrep	*	*	*
*	*	*	*	*	*	*	*	*	*	*	*	*	*	*	*	*	*	*	*	*v	*v	*	*	*	*	*	*	*	*	*	*	*	*
=53	=53	=53	=53	=53	=53	=53	=53	=53	=53	=53	=53	=53	=53	=53	=53	=53	=53	=53	=53	=53	=53	=53	=53	=53	=53	=53	=53	=53	=53	=53	=53	=53
*	*	*	*	*	*	*	*	*	*	*	*	*	*	*	*	*	*	*	*	*	*	*	*	*	*^	*	*	*	*	*	*	*
!	!	!	!	!	!LO:SIC:s=4BB\	!	!	!	!	!	!	!	!	!	!	!	!	!	!	!	!	!	!	!	!	!	!	!	!	!	!	!	!
4Ra/	4Ra/	.	4Ree\	.	4Re\	.	4BB/	.	4b\	.	4bb 4b\	.	4bb\	.	4b 4B/	4BB/	.	4B 4BB\	.	4b 4B\	.	4B/	4B\	.	4b/	4b\	.	4bb 4b\	.	4bb\	.	4bb\	.
4r	4r	.	4r	.	4r	.	4r	.	4r	.	4r	.	4r	.	4r	4r	.	4r	.	4r	.	4r	4ryy	.	4r	4ryy	.	4r	.	4r	.	4r	.
*	*	*	*	*	*	*	*	*	*	*	*	*	*	*	*	*	*	*	*	*	*	*	*	*	*v	*v	*	*	*	*	*	*	*
=54	=54	=54	=54	=54	=54	=54	=54	=54	=54	=54	=54	=54	=54	=54	=54	=54	=54	=54	=54	=54	=54	=54	=54	=54	=54	=54	=54	=54	=54	=54	=54	=54
*rep	*rep	*	*	*	*	*	*	*	*	*	*	*	*	*	*	*	*	*	*	*	*	*	*	*	*	*	*	*	*	*	*	*
!	!	!	!	!	!LO:SIC:s=4BB\	!	!	!	!	!	!	!	!	!	!	!	!	!	!	!	!	!	!	!	!	!	!	!	!	!	!	!
4Ra/	4Ra/	.	4Ree\	.	4Re\	.	4B\	.	4f# 4B/	.	4dd# 4f# 4B/	.	4bb 4dd# 4f#\	.	4dd#X 4f#/	4B\	.	4B 4BB\	.	4f# 4B/	.	4f#/	4d#X\	.	4ff# 4a#\	.	4bb 4dd#\	.	4bb\	.	4bb\	.
4r	4r	.	4r	.	4r	.	4r	.	4r	.	4r	.	4r	.	4r	4r	.	4r	.	4r	.	4r	4ryy	.	4r	.	4r	.	4r	.	4r	.
*Xrep	*Xrep	*	*	*	*	*	*	*	*	*	*	*	*	*	*	*	*	*	*	*	*	*	*	*	*	*	*	*	*	*	*	*
=55	=55	=55	=55	=55	=55	=55	=55	=55	=55	=55	=55	=55	=55	=55	=55	=55	=55	=55	=55	=55	=55	=55	=55	=55	=55	=55	=55	=55	=55	=55	=55	=55
*	*	*	*	*	*	*	*	*	*	*	*	*	*	*	*	*	*	*^	*	*^	*	*	*	*	*	*	*^	*	*	*	*	*
*rep	*rep	*	*rep	*	*	*	*	*	*	*	*	*	*	*	*	*	*	*	*	*	*	*	*	*	*	*	*	*	*	*	*	*	*	*	*
!	!	!	!	!	!LO:SIC:s=4BB\	!	!	!	!	!	!	!	!	!	!	!	!	!	!	!	!	!	!	!	!	!	!	!	!	!	!	!	!	!	!
4Ra/	4Ra/	.	4Ree\	.	4Re\	.	4BB/	.	4B/	.	4B/	.	4B/	.	4b 4B/	4BB/	.	4BB/	4BB\	.	4B/	4B\	.	4B/	4B\	.	4b\	.	4b/	4b\	.	4b\	.	4b\	.
4r	4r	.	4r	.	4r	.	4r	.	4r	.	4r	.	4r	.	4r	4r	.	4r	4ryy	.	4r	4ryy	.	4r	4ryy	.	4r	.	4r	4ryy	.	4r	.	4r	.
*Xrep	*Xrep	*	*Xrep	*	*	*	*	*	*	*	*	*	*	*	*	*	*	*	*	*	*	*	*	*	*	*	*	*	*	*	*	*	*	*	*
*	*	*	*	*	*	*	*	*	*	*	*	*	*	*	*	*	*	*v	*v	*	*	*	*	*	*	*	*	*	*v	*v	*	*	*	*	*
*	*	*	*	*	*	*	*	*	*	*	*	*	*	*	*	*	*	*	*	*v	*v	*	*	*	*	*	*	*	*	*	*	*	*
=56	=56	=56	=56	=56	=56	=56	=56	=56	=56	=56	=56	=56	=56	=56	=56	=56	=56	=56	=56	=56	=56	=56	=56	=56	=56	=56	=56	=56	=56	=56	=56	=56
*rep	*rep	*	*rep	*	*	*	*	*	*	*	*	*	*	*	*	*	*	*	*	*	*	*	*	*	*	*	*	*	*	*	*	*
!	!	!	!	!	!LO:SIC:s=4BB\	!	!	!	!	!	!	!	!	!	!	!	!	!	!	!	!	!	!	!	!	!	!	!	!	!	!	!
4Ra/	4Ra/	.	4Ree\	.	4Re\	.	4B\	.	4f# 4B/	.	4dd# 4f# 4B/	.	4bb 4dd# 4f#\	.	4dd#X 4f#/	4B\	.	4B 4BB\	.	4f# 4B\	.	4f#/	4d#X\	.	4ff# 4a#\	.	4bb 4dd#\	.	4bb\	.	4bb\	.
4r	4r	.	4r	.	4r	.	4r	.	4r	.	4r	.	4r	.	4r	4r	.	4r	.	4r	.	4r	4ryy	.	4r	.	4r	.	4r	.	4r	.
*Xrep	*Xrep	*	*Xrep	*	*	*	*	*	*	*	*	*	*	*	*	*	*	*	*	*	*	*	*	*	*	*	*	*	*	*	*	*
=57	=57	=57	=57	=57	=57	=57	=57	=57	=57	=57	=57	=57	=57	=57	=57	=57	=57	=57	=57	=57	=57	=57	=57	=57	=57	=57	=57	=57	=57	=57	=57	=57
*	*	*	*	*	*	*	*	*	*	*	*	*	*	*	*	*	*	*^	*	*^	*	*	*	*	*	*	*^	*	*	*	*	*
*rep	*	*	*rep	*	*	*	*	*	*	*	*	*	*	*	*	*	*	*	*	*	*	*	*	*	*	*	*	*	*	*	*	*	*	*	*
!	!	!	!	!	!LO:SIC:s=2BBT\	!	!	!	!	!	!	!	!	!	!	!	!	!	!	!	!	!	!	!	!	!	!	!	!	!	!	!	!	!	!
4Ra/	2RaTT/	.	4Ree\	.	2Rett\	.	4BB/	.	4B/	.	4B/	.	4b\	.	4b 4B/	4BB/	.	4BB/	4BB\	.	4B/	4B\	.	4B/	4B\	.	4b\	.	4b/	4b\	.	4b\	.	4b\	.
4r	.	.	4r	.	.	.	4r	.	4r	.	4r	.	4r	.	4r	4r	.	4r	4ryy	.	4r	4ryy	.	4r	4ryy	.	4r	.	4r	4ryy	.	4r	.	4r	.
*Xrep	*	*	*Xrep	*	*	*	*	*	*	*	*	*	*	*	*	*	*	*	*	*	*	*	*	*	*	*	*	*	*	*	*	*	*	*	*
*	*	*	*	*	*	*	*	*	*	*	*	*	*	*	*	*	*	*v	*v	*	*	*	*	*v	*v	*	*	*	*v	*v	*	*	*	*	*
*	*	*	*	*	*	*	*	*	*	*	*	*	*	*	*	*	*	*	*	*v	*v	*	*	*	*	*	*	*	*	*	*	*
=58	=58	=58	=58	=58	=58	=58	=58	=58	=58	=58	=58	=58	=58	=58	=58	=58	=58	=58	=58	=58	=58	=58	=58	=58	=58	=58	=58	=58	=58	=58	=58
!	!	!	!LO:TX:a:t=1.	!	!LO:SIC:s=2BB\	!	!	!	!	!	!	!	!	!	!	!	!	!	!	!	!	!	!	!	!	!	!	!	!	!	!
2r	2RaTTT/	.	2r	.	2Rettt\	.	2r	.	2r	.	2r	.	2r	.	2r	2r	.	2r	.	2r	.	2r	.	2r	.	2r	.	2r	.	2r	.
=59	=59	=59	=59	=59	=59	=59	=59	=59	=59	=59	=59	=59	=59	=59	=59	=59	=59	=59	=59	=59	=59	=59	=59	=59	=59	=59	=59	=59	=59	=59	=59
*	*	*	*	*	*	*	*	*	*	*	*	*	*	*	*	*	*	*	*	*	*	*^	*	*	*	*	*	*	*	*	*
!	!	!	!	!	!LO:TX:b:t=sec&colon;	!	!	!	!	!	!	!	!	!	!	!	!	!	!	!	!	!	!	!	!	!	!	!	!	!	!	!
!	!	!	!	!	!LO:SIC:s=4BB\|	!	!	!	!	!	!	!	!	!	!	!	!	!	!	!	!	!	!	!	!	!	!	!	!	!	!LO:TX:a:t=sec&colon;	!
4Ra/	4Ra/	.	4Ree\	.	4Re\|	.	4BB/	.	4f# 4B/	.	4dd# 4f# 4B/	.	4bb 4dd# 4f#\	.	4dd#X 4f#/	4BB/	.	4B 4BB\	.	4f# 4B/	.	4f#/	4d#X\	.	4ff# 4b\	.	4bb 4dd#\	.	4bb\	.	4bb\	.
!	!	!	!	!	!	!	!	!	!	!	!	!	!	!	!LO:TX:a:t=Fine\ndel Ballo	!	!	!	!	!	!	!	!	!	!	!	!	!	!	!	!	!
4r;	4r;	.	4r;	.	4r;	.	4r;	.	4r;	.	4r;	.	4r;	.	4r;	4r;	.	4r;	.	4r;	.	4r;	4ryy	.	4r;	.	4r;	.	4r;	.	4r;	.
*	*	*	*	*	*	*	*	*	*	*	*	*	*	*	*	*	*	*	*	*	*	*v	*v	*	*	*	*	*	*	*	*	*
==	==	==	==	==	==	==	==	==	==	==	==	==	==	==	==	==	==	==	==	==	==	==	==	==	==	==	==	==	==	==	==
*-	*-	*-	*-	*-	*-	*-	*-	*-	*-	*-	*-	*-	*-	*-	*-	*-	*-	*-	*-	*-	*-	*-	*-	*-	*-	*-	*-	*-	*-	*-	*-
!!!system-decoration: [({g1}s3,s4{s5,s6}s7,s8,s9{s10,s11}s12,s13,s14{s15,s16,s17})]
!!!RDF**kern: > = above
!!!RDF**kern: < = below
!!!RDF**kern: | = vertical stroke
!!!ENC: Marta Lawrence
!!!END: 2021-06-18
!!!ENC: Tomasz Grochalski
!!!END: 2021-06-01
!!!YEC: Copyright 2022 Narodowy Instytut Fryderyka Chopina (https://polishscores.org)
!!!YEM: License CC-BY-4.0 (https://creativecommons.org/licenses/by/4.0)
